ClaudiaGalliano/Jackal-rover-localization/bag1_example/csv/joint_states_data.csv
time_sec,time_nanosec,position_front_left_wheel_joint,position_front_right_wheel_joint,position_rear_left_wheel_joint,position_rear_right_wheel_joint,velocity_front_left_wheel_joint,velocity_front_right_wheel_joint,velocity_rear_left_wheel_joint,velocity_rear_right_wheel_joint
1713795736,145519591,-0.00012266940029803663,0.0,-0.00012266940029803663,0.0,0.0,0.0,0.0,0.0
1713795736,165508032,-0.00012266940029803663,0.0,-0.00012266940029803663,0.0,0.0,0.0,0.0,0.0
1713795736,185496810,-0.00012266940029803663,0.0,-0.00012266940029803663,0.0,0.0,0.0,0.0,0.0
1713795736,205486187,-0.00012266940029803663,0.0,-0.00012266940029803663,0.0,0.0,0.0,0.0,0.0
1713795736,225487106,-0.00012266940029803663,0.0,-0.00012266940029803663,0.0,0.0,0.0,0.0,0.0
1713795736,245468042,-0.00012266940029803663,0.0,-0.00012266940029803663,0.0,0.0,0.0,0.0,0.0
1713795736,265460346,-0.00012266940029803663,0.0,-0.00012266940029803663,0.0,0.0,0.0,0.0,0.0
1713795736,285458984,-0.00012266940029803663,0.0,-0.00012266940029803663,0.0,0.0,0.0,0.0,0.0
1713795736,305483639,-0.00012266940029803663,0.0,-0.00012266940029803663,0.0,0.0,0.0,0.0,0.0
1713795736,325437557,-0.00012266940029803663,0.0,-0.00012266940029803663,0.0,0.0,0.0,0.0,0.0
1713795736,345475666,-0.00012266940029803663,0.0,-0.00012266940029803663,0.0,0.0,0.0,0.0,0.0
1713795736,365474348,-0.00012266940029803663,0.0,-0.00012266940029803663,0.0,0.0,0.0,0.0,0.0
1713795736,385502810,-0.00012266940029803663,0.0,-0.00012266940029803663,0.0,0.0,0.0,0.0,0.0
1713795736,405462711,-0.00012266940029803663,0.0,-0.00012266940029803663,0.0,0.0,0.0,0.0,0.0
1713795736,425483834,-0.00012266940029803663,0.0,-0.00012266940029803663,0.0,0.0,0.0,0.0,0.0
1713795736,445479968,-0.00012266940029803663,0.0,-0.00012266940029803663,0.0,0.0,0.0,0.0,0.0
1713795736,465515179,-0.00012266940029803663,0.0,-0.00012266940029803663,0.0,0.0,0.0,0.0,0.0
1713795736,485489310,-0.00012266940029803663,0.0,-0.00012266940029803663,0.0,0.0,0.0,0.0,0.0
1713795736,505462571,-0.00012266940029803663,0.0,-0.00012266940029803663,0.0,0.0,0.0,0.0,0.0
1713795736,525457896,-0.00012266940029803663,0.0,-0.00012266940029803663,0.0,0.0,0.0,0.0,0.0
1713795736,545459356,-0.00012266940029803663,0.0,-0.00012266940029803663,0.0,0.0,0.0,0.0,0.0
1713795736,565493293,-0.00012266940029803663,0.0,-0.00012266940029803663,0.0,0.0,0.0,0.0,0.0
1713795736,585467422,-0.00012266940029803663,0.0,-0.00012266940029803663,0.0,0.0,0.0,0.0,0.0
1713795736,605465781,-0.00012266940029803663,0.0,-0.00012266940029803663,0.0,0.0,0.0,0.0,0.0
1713795736,625461971,-0.00012266940029803663,0.0,-0.00012266940029803663,0.0,0.0,0.0,0.0,0.0
1713795736,645473843,-0.00012266940029803663,0.0,-0.00012266940029803663,0.0,0.0,0.0,0.0,0.0
1713795736,665492778,-0.00012266940029803663,0.0,-0.00012266940029803663,0.0,0.0,0.0,0.0,0.0
1713795736,685483688,-0.00012266940029803663,0.0,-0.00012266940029803663,0.0,0.0,0.0,0.0,0.0
1713795736,705478652,-0.00012266940029803663,0.0,-0.00012266940029803663,0.0,0.0,0.0,0.0,0.0
1713795736,725470353,-0.00012266940029803663,0.0,-0.00012266940029803663,0.0,0.0,0.0,0.0,0.0
1713795736,745451012,-0.00012266940029803663,0.0,-0.00012266940029803663,0.0,0.0,0.0,0.0,0.0
1713795736,765503902,-0.00012266940029803663,0.0,-0.00012266940029803663,0.0,0.0,0.0,0.0,0.0
1713795736,785492719,-0.00012266940029803663,0.0,-0.00012266940029803663,0.0,0.0,0.0,0.0,0.0
1713795736,805457558,-0.00012266940029803663,0.0,-0.00012266940029803663,0.0,0.0,0.0,0.0,0.0
1713795736,825509989,-0.00012266940029803663,0.0,-0.00012266940029803663,0.0,0.0,0.0,0.0,0.0
1713795736,845485599,-0.00012266940029803663,0.0,-0.00012266940029803663,0.0,0.0,0.0,0.0,0.0
1713795736,865516400,-0.00012266940029803663,0.0,-0.00012266940029803663,0.0,0.0,0.0,0.0,0.0
1713795736,885490104,-0.00012266940029803663,0.0,-0.00012266940029803663,0.0,0.0,0.0,0.0,0.0
1713795736,905424531,-0.00012266940029803663,0.0,-0.00012266940029803663,0.0,0.0,0.0,0.0,0.0
1713795736,925460504,-0.00012266940029803663,0.0,-0.00012266940029803663,0.0,0.0,0.0,0.0,0.0
1713795736,945455003,-0.00012266940029803663,0.0,-0.00012266940029803663,0.0,0.0,0.0,0.0,0.0
1713795736,965507593,-0.00012266940029803663,0.0,-0.00012266940029803663,0.0,0.0,0.0,0.0,0.0
1713795736,985462223,-0.00012266940029803663,0.0,-0.00012266940029803663,0.0,0.0,0.0,0.0,0.0
1713795737,5484343,-0.00012266940029803663,0.0,-0.00012266940029803663,0.0,0.0,0.0,0.0,0.0
1713795737,25436531,-0.00012266940029803663,0.0,-0.00012266940029803663,0.0,0.0,0.0,0.0,0.0
1713795737,45784859,-0.00012266940029803663,0.0,-0.00012266940029803663,0.0,0.0,0.0,0.0,0.0
1713795737,65478435,-0.00012266940029803663,0.0,-0.00012266940029803663,0.0,0.0,0.0,0.0,0.0
1713795737,85478332,-0.00012266940029803663,0.0,-0.00012266940029803663,0.0,0.0,0.0,0.0,0.0
1713795737,105476723,-0.00012266940029803663,0.0,-0.00012266940029803663,0.0,0.0,0.0,0.0,0.0
1713795737,125455551,-0.00012266940029803663,0.0,-0.00012266940029803663,0.0,0.0,0.0,0.0,0.0
1713795737,145457602,-0.00012266940029803663,0.0,-0.00012266940029803663,0.0,0.0,0.0,0.0,0.0
1713795737,165476021,0.000613346986938268,0.000981355202384293,0.000613346986938268,0.000981355202384293,0.24521611630916595,0.3678855001926422,0.24521611630916595,0.3678855001926422
1713795737,185500549,0.012144270353019238,0.012021600268781185,0.012144270353019238,0.012021600268781185,0.49055489897727966,0.3678855001926422,0.49055489897727966,0.3678855001926422
1713795737,205481880,0.028581969439983368,0.02919531613588333,0.028581969439983368,0.02919531613588333,0.7358936667442322,0.7358936667442322,0.7358936667442322,0.7358936667442322
1713795737,225458180,0.0440383106470108,0.04342496395111084,0.0440383106470108,0.04342496395111084,0.7358936667442322,0.6133469939231873,0.7358936667442322,0.6133469939231873
1713795737,245465618,0.06194804236292839,0.06158003583550453,0.06194804236292839,0.06158003583550453,0.6133469939231873,0.7358936667442322,0.6133469939231873,0.7358936667442322
1713795737,265475706,0.0785084143280983,0.0787537544965744,0.0785084143280983,0.0787537544965744,0.6133469939231873,0.8585630655288696,0.6133469939231873,0.8585630655288696
1713795737,285379720,0.0785084143280983,0.0787537544965744,0.0785084143280983,0.0787537544965744,0.6133469939231873,0.8585630655288696,0.6133469939231873,0.8585630655288696
1713795737,305424232,0.09531412273645401,0.08819929510354996,0.09531412273645401,0.08819929510354996,0.49055489897727966,0.0,0.49055489897727966,0.0
1713795737,325453170,0.10402364283800125,0.09138869494199753,0.10402364283800125,0.09138869494199753,0.1225467249751091,0.24521611630916595,0.1225467249751091,0.24521611630916595
1713795737,345518956,0.10868508368730545,0.09617280215024948,0.10868508368730545,0.09617280215024948,0.24521611630916595,0.24521611630916595,0.24521611630916595,0.24521611630916595
1713795737,365482504,0.11310118436813354,0.10120224952697754,0.11310118436813354,0.10120224952697754,0.1225467249751091,0.1225467249751091,0.1225467249751091,0.1225467249751091
1713795737,385516404,0.12168803811073303,0.10991177707910538,0.12168803811073303,0.10991177707910538,0.3678855001926422,0.49055489897727966,0.3678855001926422,0.49055489897727966
1713795737,405464582,0.13738971948623657,0.1251227855682373,0.13738971948623657,0.1251227855682373,0.6133469939231873,1.1040245294570923,0.6133469939231873,1.1040245294570923
1713795737,425430823,0.13738971948623657,0.1251227855682373,0.13738971948623657,0.1251227855682373,0.6133469939231873,1.1040245294570923,0.6133469939231873,1.1040245294570923
1713795737,445466026,0.15296873450279236,0.1391070932149887,0.15296873450279236,0.1391070932149887,0.24521611630916595,0.6133469939231873,0.24521611630916595,0.6133469939231873
1713795737,465467748,0.16670770943164825,0.15579013526439667,0.16670770943164825,0.15579013526439667,263430.53125,0.6133469939231873,263430.53125,0.6133469939231873
1713795737,485464956,0.19516700506210327,0.1824093908071518,0.19516700506210327,0.1824093908071518,1.5945794582366943,2.2080490589141846,1.5945794582366943,2.2080490589141846
1713795737,505476125,0.24374409019947052,0.2334398627281189,0.24374409019947052,0.2334398627281189,2.330718517303467,2.330718517303467,2.330718517303467,2.330718517303467
1713795737,525453540,0.3082681894302368,0.2971052825450897,0.3082681894302368,0.2971052825450897,2.9439427852630615,2.9439427852630615,2.9439427852630615,2.9439427852630615
1713795737,545437100,0.3797844350337982,0.36935755610466003,0.3797844350337982,0.36935755610466003,3.189281463623047,3.311950922012329,3.189281463623047,3.311950922012329
1713795737,565482742,0.4608689248561859,0.44786596298217773,0.4608689248561859,0.44786596298217773,3.5572898387908936,3.4346203804016113,3.5572898387908936,3.4346203804016113
1713795737,585449900,0.4608689248561859,0.44786596298217773,0.4608689248561859,0.44786596298217773,3.5572898387908936,3.4346203804016113,3.5572898387908936,3.4346203804016113
1713795737,605506725,0.5452654361724854,0.5355745553970337,0.5452654361724854,0.5355745553970337,4.048089981079102,4.048089981079102,4.048089981079102,4.048089981079102
1713795737,625481342,0.6414382457733154,0.6327287554740906,0.6414382457733154,0.6327287554740906,3.925297975540161,3.925297975540161,3.925297975540161,3.925297975540161
1713795737,645543561,0.7484059929847717,0.7366297245025635,0.7484059929847717,0.7366297245025635,4.661437034606934,4.661437034606934,4.661437034606934,4.661437034606934
1713795737,665485662,0.849730908870697,0.8385679721832275,0.849730908870697,0.8385679721832275,4.5387678146362305,4.5387678146362305,4.5387678146362305,4.5387678146362305
1713795737,685472139,0.9467623829841614,0.9413649439811707,0.9467623829841614,0.9413649439811707,5.029445171356201,4.416098117828369,5.029445171356201,4.416098117828369
1713795737,705419066,0.9467623829841614,0.9413649439811707,0.9467623829841614,0.9413649439811707,5.029445171356201,4.416098117828369,5.029445171356201,4.416098117828369
1713795737,725463501,1.0602315664291382,1.0489460229873657,1.0602315664291382,1.0489460229873657,4.661437034606934,4.416098117828369,4.661437034606934,4.416098117828369
1713795737,745497235,1.1700206995010376,1.16609525680542,1.1700206995010376,1.16609525680542,5.151991844177246,5.151991844177246,5.151991844177246,5.151991844177246
1713795737,765510952,1.299804925918579,1.288028597831726,1.299804925918579,1.288028597831726,4.784106254577637,5.3973307609558105,4.784106254577637,5.3973307609558105
1713795737,785502684,1.4212476015090942,1.417567491531372,1.4212476015090942,1.417567491531372,5.765338897705078,6.010677814483643,5.765338897705078,6.010677814483643
1713795737,805484571,1.552381157875061,1.5421996116638184,1.552381157875061,1.5421996116638184,6.37868595123291,6.37868595123291,6.37868595123291,6.37868595123291
1713795737,825506904,1.6908749341964722,1.6820427179336548,1.6908749341964722,1.6820427179336548,6.256016254425049,6.133347034454346,6.256016254425049,6.133347034454346
1713795737,845512636,1.8324353694915771,1.8211498260498047,1.8324353694915771,1.8211498260498047,6.624024391174316,6.37868595123291,6.624024391174316,6.37868595123291
1713795737,865438392,1.8324353694915771,1.8211498260498047,1.8324353694915771,1.8211498260498047,6.624024391174316,6.37868595123291,6.624024391174316,6.37868595123291
1713795737,885529040,1.9661450386047363,1.9607475996017456,1.9661450386047363,1.9607475996017456,5.888008117675781,6.133347034454346,5.888008117675781,6.133347034454346
1713795737,905541589,2.112612247467041,2.1046388149261475,2.112612247467041,2.1046388149261475,6.992033004760742,5.888008117675781,6.992033004760742,5.888008117675781
1713795737,925492303,2.246199369430542,2.2469353675842285,2.246199369430542,2.2469353675842285,6.501355171203613,2.2080490589141846,6.501355171203613,2.2080490589141846
1713795737,945508890,2.4119255542755127,2.4040746688842773,2.4119255542755127,2.4040746688842773,6.133347034454346,6.37868595123291,6.133347034454346,6.37868595123291
1713795737,965485584,2.5549581050872803,2.542691230773926,2.5549581050872803,2.542691230773926,6.37868595123291,6.746694087982178,6.37868595123291,6.746694087982178
1713795737,985551857,2.696641206741333,2.686582326889038,2.696641206741333,2.686582326889038,6.624024391174316,6.501355171203613,6.624024391174316,6.501355171203613
1713795738,5541713,2.834153652191162,2.8318228721618652,2.834153652191162,2.8318228721618652,6.256016254425049,6.869363307952881,6.256016254425049,6.869363307952881
1713795738,25463110,2.834153652191162,2.8318228721618652,2.834153652191162,2.8318228721618652,6.256016254425049,6.869363307952881,6.256016254425049,6.869363307952881
1713795738,45456135,2.834153652191162,2.8318228721618652,2.834153652191162,2.8318228721618652,6.256016254425049,6.869363307952881,6.256016254425049,6.869363307952881
1713795738,65430325,2.834153652191162,2.8318228721618652,2.834153652191162,2.8318228721618652,6.256016254425049,6.869363307952881,6.256016254425049,6.869363307952881
1713795738,85472222,3.259448528289795,3.2471814155578613,3.259448528289795,3.2471814155578613,263430.53125,263430.53125,263430.53125,263430.53125
1713795738,105489834,3.3968381881713867,3.3963475227355957,3.3968381881713867,3.3963475227355957,6.133347034454346,6.256016254425049,6.133347034454346,6.256016254425049
1713795738,125463463,3.546494960784912,3.5453908443450928,3.546494960784912,3.5453908443450928,6.501355171203613,6.37868595123291,6.501355171203613,6.37868595123291
1713795738,145452833,3.684497833251953,3.6890366077423096,3.684497833251953,3.6890366077423096,6.256016254425049,6.256016254425049,6.256016254425049,6.256016254425049
1713795738,165478771,3.8308424949645996,3.843477487564087,3.8308424949645996,3.843477487564087,6.010677814483643,6.624024391174316,6.010677814483643,6.624024391174316
1713795738,185476324,3.987246036529541,3.9850380420684814,3.987246036529541,3.9850380420684814,6.501355171203613,6.256016254425049,6.501355171203613,6.256016254425049
1713795738,205438778,3.987246036529541,3.9850380420684814,3.987246036529541,3.9850380420684814,6.501355171203613,6.256016254425049,6.501355171203613,6.256016254425049
1713795738,225475218,4.136657238006592,4.141441345214844,4.136657238006592,4.141441345214844,6.501355171203613,6.869363307952881,6.501355171203613,6.869363307952881
1713795738,245462904,4.306676864624023,4.310234546661377,4.306676864624023,4.310234546661377,6.501355171203613,6.746694087982178,6.501355171203613,6.746694087982178
1713795738,265479371,4.461731433868408,4.455229759216309,4.461731433868408,4.455229759216309,7.114702224731445,6.992033004760742,7.114702224731445,6.992033004760742
1713795738,285449813,4.615190505981445,4.61543607711792,4.615190505981445,4.61543607711792,6.992033004760742,6.992033004760742,6.992033004760742,6.992033004760742
1713795738,305489096,4.767178058624268,4.766319274902344,4.767178058624268,4.766319274902344,7.114702224731445,6.256016254425049,7.114702224731445,6.256016254425049
1713795738,325480052,4.9152398109436035,4.911437034606934,4.9152398109436035,4.911437034606934,6.133347034454346,6.133347034454346,6.133347034454346,6.133347034454346
1713795738,345456963,4.9152398109436035,4.911437034606934,4.9152398109436035,4.911437034606934,6.133347034454346,6.133347034454346,6.133347034454346,6.133347034454346
1713795738,365457710,5.073237895965576,5.0718889236450195,5.073237895965576,5.0718889236450195,6.624024391174316,6.624024391174316,6.624024391174316,6.624024391174316
1713795738,385493206,5.229028224945068,5.230132102966309,5.229028224945068,5.230132102966309,6.010677814483643,6.256016254425049,6.010677814483643,6.256016254425049
1713795738,405472603,5.379666328430176,5.37022066116333,5.379666328430176,5.37022066116333,7.114702224731445,6.869363307952881,7.114702224731445,6.869363307952881
1713795738,425466734,5.535579204559326,5.524538993835449,5.535579204559326,5.524538993835449,7.237371444702148,6.869363307952881,7.237371444702148,6.869363307952881
1713795738,445468827,5.700078964233398,5.69406795501709,5.700078964233398,5.69406795501709,6.869363307952881,7.114702224731445,6.869363307952881,7.114702224731445
1713795738,465479479,5.853169918060303,5.8472819328308105,5.853169918060303,5.8472819328308105,7.237371444702148,6.992033004760742,7.237371444702148,6.992033004760742
1713795738,485437704,5.853169918060303,5.8472819328308105,5.853169918060303,5.8472819328308105,7.237371444702148,6.992033004760742,7.237371444702148,6.992033004760742
1713795738,505470982,6.021104335784912,6.005648136138916,6.021104335784912,6.005648136138916,7.237371444702148,7.114702224731445,7.237371444702148,7.114702224731445
1713795738,525469842,6.183518886566162,6.18143367767334,6.183518886566162,6.18143367767334,6.501355171203613,6.869363307952881,6.501355171203613,6.869363307952881
1713795738,545457614,6.3442158699035645,6.331826210021973,6.3442158699035645,6.331826210021973,6.992033004760742,7.114702224731445,6.992033004760742,7.114702224731445
1713795738,565467911,6.493995189666748,6.489211082458496,6.493995189666748,6.489211082458496,6.992033004760742,7.114702224731445,6.992033004760742,7.114702224731445
1713795738,585470254,6.662052154541016,6.651747703552246,6.662052154541016,6.651747703552246,6.746694087982178,6.869363307952881,6.746694087982178,6.869363307952881
1713795738,605476259,6.811340808868408,6.799073696136475,6.811340808868408,6.799073696136475,6.746694087982178,6.624024391174316,6.746694087982178,6.624024391174316
1713795738,625435064,6.811340808868408,6.799073696136475,6.811340808868408,6.799073696136475,6.746694087982178,6.624024391174316,6.746694087982178,6.624024391174316
1713795738,645479577,6.952901363372803,6.947994709014893,6.952901363372803,6.947994709014893,7.114702224731445,7.237371444702148,7.114702224731445,7.237371444702148
1713795738,665458098,7.113230228424072,7.102067470550537,7.113230228424072,7.102067470550537,6.624024391174316,6.992033004760742,6.624024391174316,6.992033004760742
1713795738,685459660,7.2752766609191895,7.273190975189209,7.2752766609191895,7.273190975189209,7.114702224731445,6.746694087982178,7.114702224731445,6.746694087982178
1713795738,705469061,7.445296287536621,7.4345011711120605,7.445296287536621,7.4345011711120605,6.624024391174316,6.992033004760742,6.624024391174316,6.992033004760742
1713795738,725455009,7.593481063842773,7.592376708984375,7.593481063842773,7.592376708984375,7.237371444702148,6.746694087982178,7.237371444702148,6.746694087982178
1713795738,745475680,7.7319746017456055,7.741297245025635,7.7319746017456055,7.741297245025635,7.114702224731445,7.36004114151001,7.114702224731445,7.36004114151001
1713795738,765426747,7.7319746017456055,7.741297245025635,7.7319746017456055,7.741297245025635,7.114702224731445,7.36004114151001,7.114702224731445,7.36004114151001
1713795738,785469608,7.898682117462158,7.890218257904053,7.898682117462158,7.890218257904053,7.36004114151001,6.992033004760742,7.36004114151001,6.992033004760742
1713795738,805597697,8.056802749633789,8.04588508605957,8.056802749633789,8.04588508605957,6.869363307952881,6.624024391174316,6.869363307952881,6.624024391174316
1713795738,825491681,8.224860191345215,8.210017204284668,8.224860191345215,8.210017204284668,6.501355171203613,6.992033004760742,6.501355171203613,6.992033004760742
1713795738,845484629,8.385557174682617,8.372553825378418,8.385557174682617,8.372553825378418,6.501355171203613,6.624024391174316,6.501355171203613,6.624024391174316
1713795738,865474229,8.532760620117188,8.530061721801758,8.532760620117188,8.530061721801758,6.746694087982178,6.869363307952881,6.746694087982178,6.869363307952881
1713795738,885494670,8.689777374267578,8.685606002807617,8.689777374267578,8.685606002807617,7.36004114151001,6.37868595123291,7.36004114151001,6.37868595123291
1713795738,905482564,8.850964546203613,8.846549034118652,8.850964546203613,8.846549034118652,6.010677814483643,6.624024391174316,6.010677814483643,6.624024391174316
1713795738,925431382,8.850964546203613,8.846549034118652,8.850964546203613,8.846549034118652,6.010677814483643,6.624024391174316,6.010677814483643,6.624024391174316
1713795738,945491559,9.014605522155762,9.001848220825195,9.014605522155762,9.001848220825195,7.237371444702148,6.746694087982178,7.237371444702148,6.746694087982178
1713795738,965466206,9.16843318939209,9.1602144241333,9.16843318939209,9.1602144241333,8.464188575744629,5.888008117675781,8.464188575744629,5.888008117675781
1713795738,985484513,9.329007148742676,9.308767318725586,9.329007148742676,9.308767318725586,6.501355171203613,6.256016254425049,6.501355171203613,6.256016254425049
1713795739,5483335,9.49277114868164,9.470199584960938,9.49277114868164,9.470199584960938,6.624024391174316,6.133347034454346,6.624024391174316,6.133347034454346
1713795739,25442778,9.49277114868164,9.470199584960938,9.49277114868164,9.470199584960938,6.624024391174316,6.133347034454346,6.624024391174316,6.133347034454346
1713795739,45456281,9.49277114868164,9.470199584960938,9.49277114868164,9.470199584960938,6.624024391174316,6.133347034454346,6.624024391174316,6.133347034454346
1713795739,65450165,9.938551902770996,9.919905662536621,9.938551902770996,9.919905662536621,6.746694087982178,6.37868595123291,6.746694087982178,6.37868595123291
1713795739,85433832,9.938551902770996,9.919905662536621,9.938551902770996,9.919905662536621,6.746694087982178,6.37868595123291,6.746694087982178,6.37868595123291
1713795739,105456586,10.083178520202637,10.066986083984375,10.083178520202637,10.066986083984375,6.501355171203613,6.869363307952881,6.501355171203613,6.869363307952881
1713795739,125508141,10.251112937927246,10.234185218811035,10.251112937927246,10.234185218811035,6.746694087982178,6.501355171203613,6.746694087982178,6.501355171203613
1713795739,145506465,10.399788856506348,10.386908531188965,10.399788856506348,10.386908531188965,6.501355171203613,6.37868595123291,6.501355171203613,6.37868595123291
1713795739,165472560,10.55300235748291,10.532394409179688,10.55300235748291,10.532394409179688,6.624024391174316,6.992033004760742,6.624024391174316,6.992033004760742
1713795739,185477811,10.71333122253418,10.691496849060059,10.71333122253418,10.691496849060059,7.114702224731445,6.869363307952881,7.114702224731445,6.869363307952881
1713795739,205443662,10.865687370300293,10.849248886108398,10.865687370300293,10.849248886108398,5.642669677734375,6.501355171203613,5.642669677734375,6.501355171203613
1713795739,225432744,10.865687370300293,10.849248886108398,10.865687370300293,10.849248886108398,5.642669677734375,6.501355171203613,5.642669677734375,6.501355171203613
1713795739,245485541,10.997065544128418,10.983940124511719,10.997065544128418,10.983940124511719,5.151991844177246,5.765338897705078,5.151991844177246,5.765338897705078
1713795739,265474248,11.096796035766602,11.099863052368164,11.096796035766602,11.099863052368164,5.029445171356201,5.151991844177246,5.029445171356201,5.151991844177246
1713795739,285477329,11.159235000610352,11.161197662353516,11.159235000610352,11.161197662353516,2.330718517303467,2.9439427852630615,2.330718517303467,2.9439427852630615
1713795739,305456969,11.190638542175293,11.199838638305664,11.190638542175293,11.199838638305664,1.2266939878463745,1.2266939878463745,1.2266939878463745,1.2266939878463745
1713795739,325478626,11.212718963623047,11.219588279724121,11.212718963623047,11.219588279724121,0.3678855001926422,0.6133469939231873,0.3678855001926422,0.6133469939231873
1713795739,345472550,11.226702690124512,11.2349214553833,11.226702690124512,11.2349214553833,0.8585630655288696,0.8585630655288696,0.8585630655288696,0.8585630655288696
1713795739,365435869,11.226702690124512,11.2349214553833,11.226702690124512,11.2349214553833,0.8585630655288696,0.8585630655288696,0.8585630655288696,0.8585630655288696
1713795739,385456477,11.239706039428711,11.247801780700684,11.239706039428711,11.247801780700684,0.49055489897727966,0.49055489897727966,0.49055489897727966,0.49055489897727966
1713795739,405474510,11.25013256072998,11.259210586547852,11.25013256072998,11.259210586547852,0.24521611630916595,0.3678855001926422,0.24521611630916595,0.3678855001926422
1713795739,425461049,11.254303932189941,11.262276649475098,11.254303932189941,11.262276649475098,263430.53125,0.0,263430.53125,0.0
1713795739,445437136,11.254672050476074,11.262276649475098,11.254672050476074,11.262276649475098,0.0,0.0,0.0,0.0
1713795739,465508663,11.254672050476074,11.262276649475098,11.254672050476074,11.262276649475098,0.0,0.0,0.0,0.0
1713795739,485485588,11.254672050476074,11.262276649475098,11.254672050476074,11.262276649475098,0.0,0.0,0.0,0.0
1713795739,505502287,11.254672050476074,11.262276649475098,11.254672050476074,11.262276649475098,0.0,0.0,0.0,0.0
1713795739,525485088,11.254794120788574,11.262276649475098,11.254794120788574,11.262276649475098,0.1225467249751091,0.0,0.1225467249751091,0.0
1713795739,545489412,11.256879806518555,11.262031555175781,11.256879806518555,11.262031555175781,0.1225467249751091,0.0,0.1225467249751091,0.0
1713795739,565478898,11.260191917419434,11.261541366577148,11.260191917419434,11.261541366577148,0.0,0.0,0.0,0.0
1713795739,585426300,11.260191917419434,11.261541366577148,11.260191917419434,11.261541366577148,0.0,0.0,0.0,0.0
1713795739,605467892,11.274789810180664,11.251727104187012,11.274789810180664,11.251727104187012,1.1040245294570923,-1.4719101190567017,1.1040245294570923,-1.4719101190567017
1713795739,625467945,11.306683540344238,11.226089477539062,11.306683540344238,11.226089477539062,1.4719101190567017,-1.1040245294570923,1.4719101190567017,-1.1040245294570923
1713795739,645463545,11.347532272338867,11.18818473815918,11.347532272338867,11.18818473815918,2.575934648513794,-2.0853796005249023,2.575934648513794,-2.0853796005249023
1713795739,665447592,11.413528442382812,11.127708435058594,11.413528442382812,11.127708435058594,3.6799590587615967,-3.311950922012329,3.6799590587615967,-3.311950922012329
1713795739,685482402,11.499519348144531,11.047728538513184,11.499519348144531,11.047728538513184,3.5572898387908936,-3.311950922012329,3.5572898387908936,-3.311950922012329
1713795739,705479148,11.584897994995117,10.966398239135742,11.584897994995117,10.966398239135742,4.784106254577637,-4.661437034606934,4.784106254577637,-4.661437034606934
1713795739,725455375,11.584897994995117,10.966398239135742,11.584897994995117,10.966398239135742,4.784106254577637,-4.661437034606934,4.784106254577637,-4.661437034606934
1713795739,745476471,11.689043998718262,10.862988471984863,11.689043998718262,10.862988471984863,4.661437034606934,-4.784106254577637,4.661437034606934,-4.784106254577637
1713795739,765457795,11.81036376953125,10.750009536743164,11.81036376953125,10.750009536743164,5.029445171356201,-4.661437034606934,5.029445171356201,-4.661437034606934
1713795739,785475145,11.946036338806152,10.616422653198242,11.946036338806152,10.616422653198242,5.151991844177246,-5.274661064147949,5.151991844177246,-5.274661064147949
1713795739,805446299,12.060118675231934,10.503321647644043,12.060118675231934,10.503321647644043,5.274661064147949,-5.029445171356201,5.274661064147949,-5.029445171356201
1713795739,825477900,12.1847505569458,10.385436058044434,12.1847505569458,10.385436058044434,5.642669677734375,-5.274661064147949,5.642669677734375,-5.274661064147949
1713795739,845498623,12.300673484802246,10.281044960021973,12.300673484802246,10.281044960021973,5.151991844177246,-4.906775951385498,5.151991844177246,-4.906775951385498
1713795739,865486261,12.417577743530273,10.164017677307129,12.417577743530273,10.164017677307129,5.3973307609558105,-5.274661064147949,5.3973307609558105,-5.274661064147949
1713795739,885424658,12.417577743530273,10.164017677307129,12.417577743530273,10.164017677307129,5.3973307609558105,-5.274661064147949,5.3973307609558105,-5.274661064147949
1713795739,905463638,12.546380043029785,10.031780242919922,12.546380043029785,10.031780242919922,5.151991844177246,-263430.53125,5.151991844177246,-263430.53125
1713795739,925475805,12.678740501403809,9.909356117248535,12.678740501403809,9.909356117248535,5.765338897705078,-5.029445171356201,5.765338897705078,-5.029445171356201
1713795739,945466030,12.795153617858887,9.805578231811523,12.795153617858887,9.805578231811523,4.906775951385498,-4.661437034606934,4.906775951385498,-4.661437034606934
1713795739,965465614,12.902244567871094,9.697874069213867,12.902244567871094,9.697874069213867,4.784106254577637,-5.151991844177246,4.784106254577637,-5.151991844177246
1713795739,985467403,13.021723747253418,9.585386276245117,13.021723747253418,9.585386276245117,4.5387678146362305,-4.293428897857666,4.5387678146362305,-4.293428897857666
1713795740,5475895,13.129796028137207,9.488232612609863,13.129796028137207,9.488232612609863,4.5387678146362305,-4.5387678146362305,4.5387678146362305,-4.5387678146362305
1713795740,25459420,13.129796028137207,9.488232612609863,13.129796028137207,9.488232612609863,4.5387678146362305,-4.5387678146362305,4.5387678146362305,-4.5387678146362305
1713795740,45445896,13.129796028137207,9.488232612609863,13.129796028137207,9.488232612609863,4.5387678146362305,-4.5387678146362305,4.5387678146362305,-4.5387678146362305
1713795740,65435283,13.129796028137207,9.488232612609863,13.129796028137207,9.488232612609863,4.5387678146362305,-4.5387678146362305,4.5387678146362305,-4.5387678146362305
1713795740,85470366,13.41009521484375,9.222285270690918,13.41009521484375,9.222285270690918,4.416098117828369,-4.048089981079102,4.416098117828369,-4.048089981079102
1713795740,105459842,13.506268501281738,9.123536109924316,13.506268501281738,9.123536109924316,4.661437034606934,-263430.53125,4.661437034606934,-263430.53125
1713795740,125459076,13.621209144592285,9.01853084564209,13.621209144592285,9.01853084564209,4.5387678146362305,-4.416098117828369,4.5387678146362305,-4.416098117828369
1713795740,145460174,13.720449447631836,8.925302505493164,13.720449447631836,8.925302505493164,4.293428897857666,-4.416098117828369,4.293428897857666,-4.416098117828369
1713795740,165467799,13.818216323852539,8.836612701416016,13.818216323852539,8.836612701416016,4.293428897857666,-4.170759201049805,4.293428897857666,-4.170759201049805
1713795740,185428148,13.818216323852539,8.836612701416016,13.818216323852539,8.836612701416016,4.293428897857666,-4.170759201049805,4.293428897857666,-4.170759201049805
1713795740,205485512,13.91757869720459,8.742525100708008,13.91757869720459,8.742525100708008,4.5387678146362305,-4.170759201049805,4.5387678146362305,-4.170759201049805
1713795740,225508907,14.018167495727539,8.644880294799805,14.018167495727539,8.644880294799805,3.4346203804016113,-3.1279468536376953,3.4346203804016113,-3.1279468536376953
1713795740,245508262,14.086126327514648,8.576676368713379,14.086126327514648,8.576676368713379,3.802628517150879,-3.925297975540161,3.802628517150879,-3.925297975540161
1713795740,265495148,14.191008567810059,8.47890853881836,14.191008567810059,8.47890853881836,3.6799590587615967,-3.925297975540161,3.6799590587615967,-3.925297975540161
1713795740,285534295,14.27515983581543,8.396965026855469,14.27515983581543,8.396965026855469,3.802628517150879,-3.6799590587615967,3.802628517150879,-3.6799590587615967
1713795740,305488535,14.370351791381836,8.311097145080566,14.370351791381836,8.311097145080566,4.048089981079102,-3.802628517150879,4.048089981079102,-3.802628517150879
1713795740,325479695,14.460759162902832,8.230871200561523,14.460759162902832,8.230871200561523,3.5572898387908936,-3.5572898387908936,3.5572898387908936,-3.5572898387908936
1713795740,345443808,14.460759162902832,8.230871200561523,14.460759162902832,8.230871200561523,3.5572898387908936,-3.5572898387908936,3.5572898387908936,-3.5572898387908936
1713795740,365484925,14.544174194335938,8.150032043457031,14.544174194335938,8.150032043457031,4.170759201049805,-3.802628517150879,4.170759201049805,-3.802628517150879
1713795740,385476732,14.634949684143066,8.066617012023926,14.634949684143066,8.066617012023926,4.170759201049805,-4.293428897857666,4.170759201049805,-4.293428897857666
1713795740,405470774,14.732471466064453,7.977436065673828,14.732471466064453,7.977436065673828,3.925297975540161,-3.6799590587615967,3.925297975540161,-3.6799590587615967
1713795740,425473369,14.81735897064209,7.889727592468262,14.81735897064209,7.889727592468262,3.925297975540161,-3.802628517150879,3.925297975540161,-3.802628517150879
1713795740,445542505,14.906907081604004,7.804349422454834,14.906907081604004,7.804349422454834,3.802628517150879,-3.6799590587615967,3.802628517150879,-3.6799590587615967
1713795740,465471953,14.991549491882324,7.722774505615234,14.991549491882324,7.722774505615234,4.048089981079102,-3.5572898387908936,4.048089981079102,-3.5572898387908936
1713795740,485495718,15.080607414245605,7.642303466796875,15.080607414245605,7.642303466796875,4.048089981079102,-4.048089981079102,4.048089981079102,-4.048089981079102
1713795740,505438503,15.080607414245605,7.642303466796875,15.080607414245605,7.642303466796875,4.048089981079102,-4.048089981079102,4.048089981079102,-4.048089981079102
1713795740,525508874,15.155803680419922,7.562568187713623,15.155803680419922,7.562568187713623,3.5572898387908936,-3.311950922012329,3.5572898387908936,-3.311950922012329
1713795740,545470909,15.241549491882324,7.4877400398254395,15.241549491882324,7.4877400398254395,3.802628517150879,-3.5572898387908936,3.802628517150879,-3.5572898387908936
1713795740,565512308,15.33735466003418,7.397455215454102,15.33735466003418,7.397455215454102,3.802628517150879,-4.048089981079102,3.802628517150879,-4.048089981079102
1713795740,585462479,15.424571990966797,7.308642387390137,15.424571990966797,7.308642387390137,4.048089981079102,-3.802628517150879,4.048089981079102,-3.802628517150879
1713795740,605464292,15.508723258972168,7.235163688659668,15.508723258972168,7.235163688659668,3.802628517150879,-3.6799590587615967,3.802628517150879,-3.6799590587615967
1713795740,625454486,15.591156959533691,7.156041622161865,15.591156959533691,7.156041622161865,4.048089981079102,-3.4346203804016113,4.048089981079102,-3.4346203804016113
1713795740,645512119,15.678620338439941,7.073117256164551,15.678620338439941,7.073117256164551,3.6799590587615967,-3.4346203804016113,3.6799590587615967,-3.4346203804016113
1713795740,665425691,15.678620338439941,7.073117256164551,15.678620338439941,7.073117256164551,3.6799590587615967,-3.4346203804016113,3.6799590587615967,-3.4346203804016113
1713795740,685458100,15.748173713684082,7.004912853240967,15.748173713684082,7.004912853240967,3.6799590587615967,-3.4346203804016113,3.6799590587615967,-3.4346203804016113
1713795740,705442259,15.830853462219238,6.937444686889648,15.830853462219238,6.937444686889648,3.6799590587615967,-3.5572898387908936,3.6799590587615967,-3.5572898387908936
1713795740,725458338,15.913900375366211,6.853784561157227,15.913900375366211,6.853784561157227,2.9439427852630615,-3.0666122436523438,2.9439427852630615,-3.0666122436523438
1713795740,745512285,15.99007797241211,6.782881259918213,15.99007797241211,6.782881259918213,3.5572898387908936,-3.4346203804016113,3.5572898387908936,-3.4346203804016113
1713795740,765498687,16.05509376525879,6.717866897583008,16.05509376525879,6.717866897583008,3.0666122436523438,-2.8212733268737793,3.0666122436523438,-2.8212733268737793
1713795740,785481456,16.12342071533203,6.651257038116455,16.12342071533203,6.651257038116455,3.189281463623047,-2.8212733268737793,3.189281463623047,-2.8212733268737793
1713795740,805410564,16.12342071533203,6.651257038116455,16.12342071533203,6.651257038116455,3.189281463623047,-2.8212733268737793,3.189281463623047,-2.8212733268737793
1713795740,825490345,16.190275192260742,6.5884504318237305,16.190275192260742,6.5884504318237305,3.189281463623047,-2.698604106903076,3.189281463623047,-2.698604106903076
1713795740,845521316,16.250505447387695,6.537665367126465,16.250505447387695,6.537665367126465,2.9439427852630615,-2.453387975692749,2.9439427852630615,-2.453387975692749
1713795740,865496616,16.315887451171875,6.474245071411133,16.315887451171875,6.474245071411133,2.2080490589141846,-2.0853796005249023,2.2080490589141846,-2.0853796005249023
1713795740,885467632,16.372928619384766,6.422846794128418,16.372928619384766,6.422846794128418,2.575934648513794,-2.8212733268737793,2.575934648513794,-2.8212733268737793
1713795740,905436025,16.425800323486328,6.372061729431152,16.425800323486328,6.372061729431152,1.5945794582366943,-1.5945794582366943,1.5945794582366943,-1.5945794582366943
1713795740,925463157,16.466279983520508,6.33256196975708,16.466279983520508,6.33256196975708,1.717248797416687,-1.8399182558059692,1.717248797416687,-1.8399182558059692
1713795740,945496073,16.511545181274414,6.2952704429626465,16.511545181274414,6.2952704429626465,1.717248797416687,-1.4719101190567017,1.717248797416687,-1.4719101190567017
1713795740,965444550,16.511545181274414,6.2952704429626465,16.511545181274414,6.2952704429626465,1.717248797416687,-1.4719101190567017,1.717248797416687,-1.4719101190567017
1713795740,985486753,16.541109085083008,6.2738037109375,16.541109085083008,6.2738037109375,0.49055489897727966,-0.3678855001926422,0.49055489897727966,-0.3678855001926422
1713795741,5484854,16.543561935424805,6.275888919830322,16.543561935424805,6.275888919830322,0.0,0.24521611630916595,0.0,0.24521611630916595
1713795741,25484913,16.543685913085938,6.277606010437012,16.543685913085938,6.277606010437012,0.0,0.0,0.0,0.0
1713795741,45453363,16.543685913085938,6.277606010437012,16.543685913085938,6.277606010437012,0.0,0.0,0.0,0.0
1713795741,65442043,16.543685913085938,6.277606010437012,16.543685913085938,6.277606010437012,0.0,0.0,0.0,0.0
1713795741,85478080,16.534238815307617,6.3015265464782715,16.534238815307617,6.3015265464782715,-0.1225467249751091,0.24521611630916595,-0.1225467249751091,0.24521611630916595
1713795741,105463012,16.529945373535156,6.302385330200195,16.529945373535156,6.302385330200195,-0.24521611630916595,0.0,-0.24521611630916595,0.0
1713795741,125460477,16.528350830078125,6.302385330200195,16.528350830078125,6.302385330200195,0.0,0.0,0.0,0.0
1713795741,145501989,16.528350830078125,6.302385330200195,16.528350830078125,6.302385330200195,0.0,0.0,0.0,0.0
1713795741,165465135,16.528350830078125,6.302508354187012,16.528350830078125,6.302508354187012,0.0,0.0,0.0,0.0
1713795741,185477055,16.528350830078125,6.302508354187012,16.528350830078125,6.302508354187012,0.0,0.0,0.0,0.0
1713795741,205465195,16.528350830078125,6.302508354187012,16.528350830078125,6.302508354187012,0.0,0.0,0.0,0.0
1713795741,225468279,16.53325843811035,6.30373477935791,16.53325843811035,6.30373477935791,0.7358936667442322,0.49055489897727966,0.7358936667442322,0.49055489897727966
1713795741,245485835,16.550186157226562,6.3211541175842285,16.550186157226562,6.3211541175842285,0.7358936667442322,0.8585630655288696,0.7358936667442322,0.8585630655288696
1713795741,265487973,16.579750061035156,6.353293418884277,16.579750061035156,6.353293418884277,2.2080490589141846,1.717248797416687,2.2080490589141846,1.717248797416687
1713795741,285500670,16.636791229248047,6.405550479888916,16.636791229248047,6.405550479888916,2.575934648513794,2.575934648513794,2.575934648513794,2.575934648513794
1713795741,305436593,16.636791229248047,6.405550479888916,16.636791229248047,6.405550479888916,2.575934648513794,2.575934648513794,2.575934648513794,2.575934648513794
1713795741,325474672,16.69837188720703,6.464186191558838,16.69837188720703,6.464186191558838,2.453387975692749,2.330718517303467,2.453387975692749,2.330718517303467
1713795741,345427189,16.777738571166992,6.535947799682617,16.777738571166992,6.535947799682617,5.029445171356201,4.416098117828369,5.029445171356201,4.416098117828369
1713795741,365485861,16.865324020385742,6.626110076904297,16.865324020385742,6.626110076904297,3.802628517150879,4.293428897857666,3.802628517150879,4.293428897857666
1713795741,385472288,16.95389175415039,6.709034442901611,16.95389175415039,6.709034442901611,4.5387678146362305,4.048089981079102,4.5387678146362305,4.048089981079102
1713795741,405505242,17.056320190429688,6.811831474304199,17.056320190429688,6.811831474304199,5.029445171356201,4.784106254577637,5.029445171356201,4.784106254577637
1713795741,425474840,17.182178497314453,6.945173263549805,17.182178497314453,6.945173263549805,5.3973307609558105,5.3973307609558105,5.3973307609558105,5.3973307609558105
1713795741,445441592,17.182178497314453,6.945173263549805,17.182178497314453,6.945173263549805,5.3973307609558105,5.3973307609558105,5.3973307609558105,5.3973307609558105
1713795741,465454698,17.336620330810547,7.0921311378479,17.336620330810547,7.0921311378479,6.256016254425049,6.256016254425049,6.256016254425049,6.256016254425049
1713795741,485468846,17.48701286315918,7.242523670196533,17.48701286315918,7.242523670196533,263430.53125,263430.53125,263430.53125,263430.53125
1713795741,505460839,17.640718460083008,7.397823333740234,17.640718460083008,7.397823333740234,6.501355171203613,6.501355171203613,6.501355171203613,6.501355171203613
1713795741,525423928,17.783872604370117,7.547847747802734,17.783872604370117,7.547847747802734,6.133347034454346,6.37868595123291,6.133347034454346,6.37868595123291
1713795741,545496767,17.941747665405273,7.709648609161377,17.941747665405273,7.709648609161377,6.624024391174316,6.501355171203613,6.624024391174316,6.501355171203613
1713795741,565496693,18.09937858581543,7.860041618347168,18.09937858581543,7.860041618347168,6.869363307952881,5.888008117675781,6.869363307952881,5.888008117675781
1713795741,585447041,18.09937858581543,7.860041618347168,18.09937858581543,7.860041618347168,6.869363307952881,5.888008117675781,6.869363307952881,5.888008117675781
1713795741,605479832,18.25222396850586,8.015708923339844,18.25222396850586,8.015708923339844,7.114702224731445,6.746694087982178,7.114702224731445,6.746694087982178
1713795741,625485889,18.388877868652344,8.152362823486328,18.388877868652344,8.152362823486328,6.869363307952881,7.114702224731445,6.869363307952881,7.114702224731445
1713795741,645495808,18.556690216064453,8.314163208007812,18.556690216064453,8.314163208007812,5.888008117675781,5.949342727661133,5.888008117675781,5.949342727661133
1713795741,665506339,18.719348907470703,8.478785514831543,18.719348907470703,8.478785514831543,6.992033004760742,6.746694087982178,6.992033004760742,6.746694087982178
1713795741,685477649,18.88838768005371,8.63801097869873,18.88838768005371,8.63801097869873,6.624024391174316,7.114702224731445,6.624024391174316,7.114702224731445
1713795741,705468008,19.04111099243164,8.78582763671875,19.04111099243164,8.78582763671875,7.237371444702148,6.992033004760742,7.237371444702148,6.992033004760742
1713795741,725456740,19.205978393554688,8.952289581298828,19.205978393554688,8.952289581298828,7.973387718200684,7.728049278259277,7.973387718200684,7.728049278259277
1713795741,745442710,19.205978393554688,8.952289581298828,19.205978393554688,8.952289581298828,7.973387718200684,7.728049278259277,7.973387718200684,7.728049278259277
1713795741,765477858,19.377962112426758,9.12059211730957,19.377962112426758,9.12059211730957,7.36004114151001,7.237371444702148,7.36004114151001,7.237371444702148
1713795741,785485256,19.53657341003418,9.273560523986816,19.53657341003418,9.273560523986816,7.482710361480713,7.114702224731445,7.482710361480713,7.114702224731445
1713795741,806020847,19.71702003479004,9.449223518371582,19.71702003479004,9.449223518371582,7.728049278259277,7.605379581451416,7.728049278259277,7.605379581451416
1713795741,825513248,19.89476776123047,9.631387710571289,19.89476776123047,9.631387710571289,6.992033004760742,7.36004114151001,6.992033004760742,7.36004114151001
1713795741,845488510,20.064910888671875,9.793556213378906,20.064910888671875,9.793556213378906,7.605379581451416,7.605379581451416,7.605379581451416,7.605379581451416
1713795741,865463699,20.214935302734375,9.94542121887207,20.214935302734375,9.94542121887207,7.237371444702148,7.36004114151001,7.237371444702148,7.36004114151001
1713795741,885439584,20.214935302734375,9.94542121887207,20.214935302734375,9.94542121887207,7.237371444702148,7.36004114151001,7.237371444702148,7.36004114151001
1713795741,905462050,20.384218215942383,10.115195274353027,20.384218215942383,10.115195274353027,6.992033004760742,7.237371444702148,6.992033004760742,7.237371444702148
1713795741,925467353,20.54332160949707,10.273316383361816,20.54332160949707,10.273316383361816,7.36004114151001,7.237371444702148,7.36004114151001,7.237371444702148
1713795741,945456315,20.717388153076172,10.449469566345215,20.717388153076172,10.449469566345215,6.256016254425049,6.440020561218262,6.256016254425049,6.440020561218262
1713795741,965472880,20.879802703857422,10.624519348144531,20.879802703857422,10.624519348144531,7.237371444702148,6.501355171203613,7.237371444702148,6.501355171203613
1713795741,985467337,21.05718231201172,10.783988952636719,21.05718231201172,10.783988952636719,6.746694087982178,7.237371444702148,6.746694087982178,7.237371444702148
1713795742,5463886,21.22119140625,10.944931030273438,21.22119140625,10.944931030273438,7.36004114151001,7.114702224731445,7.36004114151001,7.114702224731445
1713795742,25452646,21.22119140625,10.944931030273438,21.22119140625,10.944931030273438,7.36004114151001,7.114702224731445,7.36004114151001,7.114702224731445
1713795742,45443025,21.22119140625,10.944931030273438,21.22119140625,10.944931030273438,7.36004114151001,7.114702224731445,7.36004114151001,7.114702224731445
1713795742,65450016,21.22119140625,10.944931030273438,21.22119140625,10.944931030273438,7.36004114151001,7.114702224731445,7.36004114151001,7.114702224731445
1713795742,85505114,21.698253631591797,11.421133995056152,21.698253631591797,11.421133995056152,6.992033004760742,7.114702224731445,6.992033004760742,7.114702224731445
1713795742,105484133,21.870603561401367,11.601089477539062,21.870603561401367,11.601089477539062,6.501355171203613,7.482710361480713,6.501355171203613,7.482710361480713
1713795742,125467617,22.03215980529785,11.751482963562012,22.03215980529785,11.751482963562012,7.728049278259277,7.482710361480713,7.728049278259277,7.482710361480713
1713795742,145463352,22.188194274902344,11.91733169555664,22.188194274902344,11.91733169555664,7.237371444702148,7.728049278259277,7.237371444702148,7.728049278259277
1713795742,165479472,22.358827590942383,12.08256721496582,22.358827590942383,12.08256721496582,7.482710361480713,7.114702224731445,7.482710361480713,7.114702224731445
1713795742,185474335,22.522958755493164,12.250992774963379,22.522958755493164,12.250992774963379,7.605379581451416,6.869363307952881,7.605379581451416,6.869363307952881
1713795742,205428713,22.522958755493164,12.250992774963379,22.522958755493164,12.250992774963379,7.605379581451416,6.869363307952881,7.605379581451416,6.869363307952881
1713795742,225463801,22.68341064453125,12.402734756469727,22.68341064453125,12.402734756469727,6.133347034454346,6.133347034454346,6.133347034454346,6.133347034454346
1713795742,245487589,22.827547073364258,12.549324035644531,22.827547073364258,12.549324035644531,5.765338897705078,6.133347034454346,5.765338897705078,6.133347034454346
1713795742,265482560,22.95009422302246,12.697876930236816,22.95009422302246,12.697876930236816,4.906775951385498,6.010677814483643,4.906775951385498,6.010677814483643
1713795742,285485558,23.085031509399414,12.826680183410645,23.085031509399414,12.826680183410645,6.256016254425049,5.642669677734375,6.256016254425049,5.642669677734375
1713795742,305459997,23.220212936401367,12.907151222229004,23.220212936401367,12.907151222229004,3.4346203804016113,3.6799590587615967,3.4346203804016113,3.6799590587615967
1713795742,325486134,23.2955322265625,13.001852035522461,23.2955322265625,13.001852035522461,3.4346203804016113,2.453387975692749,3.4346203804016113,2.453387975692749
1713795742,345461651,23.35551643371582,13.074104309082031,23.35551643371582,13.074104309082031,3.4346203804016113,3.925297975540161,3.4346203804016113,3.925297975540161
1713795742,365423848,23.35551643371582,13.074104309082031,23.35551643371582,13.074104309082031,3.4346203804016113,3.925297975540161,3.4346203804016113,3.925297975540161
1713795742,385464019,23.41648292541504,13.1345796585083,23.41648292541504,13.1345796585083,2.9439427852630615,3.0666122436523438,2.9439427852630615,3.0666122436523438
1713795742,405519601,23.47499656677246,13.189167976379395,23.47499656677246,13.189167976379395,1.8399182558059692,1.717248797416687,1.8399182558059692,1.717248797416687
1713795742,425457237,23.524433135986328,13.238726615905762,23.524433135986328,13.238726615905762,2.2080490589141846,1.2266939878463745,2.2080490589141846,1.2266939878463745
1713795742,445524993,23.562950134277344,13.268534660339355,23.562950134277344,13.268534660339355,1.2266939878463745,1.2266939878463745,1.2266939878463745,1.2266939878463745
1713795742,465496339,23.58736228942871,13.297362327575684,23.58736228942871,13.297362327575684,0.9812324643135071,1.2266939878463745,0.9812324643135071,1.2266939878463745
1713795742,485511756,23.607847213745117,13.31760311126709,23.607847213745117,13.31760311126709,0.7358936667442322,0.6133469939231873,0.7358936667442322,0.6133469939231873
1713795742,505487681,23.618274688720703,13.330483436584473,23.618274688720703,13.330483436584473,0.3678855001926422,0.49055489897727966,0.3678855001926422,0.49055489897727966
1713795742,525440474,23.618274688720703,13.330483436584473,23.618274688720703,13.330483436584473,0.3678855001926422,0.49055489897727966,0.3678855001926422,0.49055489897727966
1713795742,545521690,23.62514305114746,13.340173721313477,23.62514305114746,13.340173721313477,0.1225467249751091,0.24521611630916595,0.1225467249751091,0.24521611630916595
1713795742,565508610,23.626371383666992,13.342995643615723,23.626371383666992,13.342995643615723,0.0,0.1225467249751091,0.0,0.1225467249751091
1713795742,585520740,23.62624740600586,13.343363761901855,23.62624740600586,13.343363761901855,0.0,0.0,0.0,0.0
1713795742,605522789,23.62624740600586,13.343240737915039,23.62624740600586,13.343240737915039,0.0,0.0,0.0,0.0
1713795742,625516342,23.62624740600586,13.343240737915039,23.62624740600586,13.343240737915039,0.0,0.0,0.0,0.0
1713795742,645518996,23.62624740600586,13.343240737915039,23.62624740600586,13.343240737915039,0.0,0.0,0.0,0.0
1713795742,665508603,23.62624740600586,13.342995643615723,23.62624740600586,13.342995643615723,0.0,-0.1225467249751091,0.0,-0.1225467249751091
1713795742,685498745,23.62612533569336,13.340786933898926,23.62612533569336,13.340786933898926,-0.1225467249751091,-0.1225467249751091,-0.1225467249751091,-0.1225467249751091
1713795742,705480422,23.625879287719727,13.336984634399414,23.625879287719727,13.336984634399414,0.0,-0.1225467249751091,0.0,-0.1225467249751091
1713795742,725503369,23.625757217407227,13.334285736083984,23.625757217407227,13.334285736083984,0.0,-0.1225467249751091,0.0,-0.1225467249751091
1713795742,745466302,23.625635147094727,13.332077980041504,23.625635147094727,13.332077980041504,0.0,0.0,0.0,0.0
1713795742,765470676,23.625635147094727,13.331832885742188,23.625635147094727,13.331832885742188,0.0,0.0,0.0,0.0
1713795742,785489013,23.625635147094727,13.332077980041504,23.625635147094727,13.332077980041504,0.0,0.0,0.0,0.0
1713795742,805467841,23.625635147094727,13.332077980041504,23.625635147094727,13.332077980041504,0.0,0.0,0.0,0.0
1713795742,825484605,23.625635147094727,13.332077980041504,23.625635147094727,13.332077980041504,0.0,0.0,0.0,0.0
1713795742,845497403,23.625635147094727,13.332077980041504,23.625635147094727,13.332077980041504,0.0,0.0,0.0,0.0
1713795742,865487947,23.625635147094727,13.332077980041504,23.625635147094727,13.332077980041504,0.0,0.0,0.0,0.0
1713795742,885490330,23.625635147094727,13.33232307434082,23.625635147094727,13.33232307434082,0.0,0.0,0.0,0.0
1713795742,905463055,23.62207794189453,13.340173721313477,23.62207794189453,13.340173721313477,-0.49055489897727966,0.1225467249751091,-0.49055489897727966,0.1225467249751091
1713795742,925459330,23.612998962402344,13.351091384887695,23.612998962402344,13.351091384887695,-263430.53125,0.49055489897727966,-263430.53125,0.49055489897727966
1713795742,945460082,23.59128761291504,13.375380516052246,23.59128761291504,13.375380516052246,-1.5945794582366943,1.962587594985962,-1.5945794582366943,1.962587594985962
1713795742,965473242,23.55375099182129,13.419295310974121,23.55375099182129,13.419295310974121,-2.0853796005249023,2.2080490589141846,-2.0853796005249023,2.2080490589141846
1713795742,985463492,23.513883590698242,13.463457107543945,23.513883590698242,13.463457107543945,-1.962587594985962,2.453387975692749,-1.962587594985962,2.453387975692749
1713795743,5482605,23.4705810546875,13.516204833984375,23.4705810546875,13.516204833984375,-2.0853796005249023,2.330718517303467,-2.0853796005249023,2.330718517303467
1713795743,25446179,23.4705810546875,13.516204833984375,23.4705810546875,13.516204833984375,-2.0853796005249023,2.330718517303467,-2.0853796005249023,2.330718517303467
1713795743,45440079,23.4705810546875,13.516204833984375,23.4705810546875,13.516204833984375,-2.0853796005249023,2.330718517303467,-2.0853796005249023,2.330718517303467
1713795743,65457246,23.340795516967773,13.651999473571777,23.340795516967773,13.651999473571777,-2.575934648513794,2.575934648513794,-2.575934648513794,2.575934648513794
1713795743,85416951,23.340795516967773,13.651999473571777,23.340795516967773,13.651999473571777,-2.575934648513794,2.575934648513794,-2.575934648513794,2.575934648513794
1713795743,105468566,23.289152145385742,13.71002197265625,23.289152145385742,13.71002197265625,-2.2080490589141846,2.2080490589141846,-2.2080490589141846,2.2080490589141846
1713795743,125501333,23.224506378173828,13.774791717529297,23.224506378173828,13.774791717529297,-3.1279468536376953,3.1279468536376953,-3.1279468536376953,3.1279468536376953
1713795743,145461036,23.15679168701172,13.850724220275879,23.15679168701172,13.850724220275879,-3.5572898387908936,3.6799590587615967,-3.5572898387908936,3.6799590587615967
1713795743,165487900,23.08306884765625,13.925061225891113,23.08306884765625,13.925061225891113,-4.048089981079102,4.170759201049805,-4.048089981079102,4.170759201049805
1713795743,185500948,23.00124740600586,14.010684967041016,23.00124740600586,14.010684967041016,-3.802628517150879,3.802628517150879,-3.802628517150879,3.802628517150879
1713795743,205470076,22.911821365356445,14.110169410705566,22.911821365356445,14.110169410705566,-4.048089981079102,4.293428897857666,-4.048089981079102,4.293428897857666
1713795743,225423962,22.911821365356445,14.110169410705566,22.911821365356445,14.110169410705566,-4.048089981079102,4.293428897857666,-4.048089981079102,4.293428897857666
1713795743,245465066,22.81920623779297,14.209041595458984,22.81920623779297,14.209041595458984,-4.048089981079102,4.170759201049805,-4.048089981079102,4.170759201049805
1713795743,265488744,22.729780197143555,14.308894157409668,22.729780197143555,14.308894157409668,-4.048089981079102,3.495954990386963,-4.048089981079102,3.495954990386963
1713795743,285494244,22.641826629638672,14.400527954101562,22.641826629638672,14.400527954101562,-4.5387678146362305,4.293428897857666,-4.5387678146362305,4.293428897857666
1713795743,305486822,22.548965454101562,14.496210098266602,22.548965454101562,14.496210098266602,-4.416098117828369,4.416098117828369,-4.416098117828369,4.416098117828369
1713795743,325457257,22.455368041992188,14.59250545501709,22.455368041992188,14.59250545501709,-3.925297975540161,4.293428897857666,-3.925297975540161,4.293428897857666
1713795743,345503373,22.3709716796875,14.681073188781738,22.3709716796875,14.681073188781738,-3.802628517150879,4.048089981079102,-3.802628517150879,4.048089981079102
1713795743,365500483,22.28510284423828,14.766573905944824,22.28510284423828,14.766573905944824,-3.802628517150879,4.048089981079102,-3.802628517150879,4.048089981079102
1713795743,385444141,22.28510284423828,14.766573905944824,22.28510284423828,14.766573905944824,-3.802628517150879,4.048089981079102,-3.802628517150879,4.048089981079102
1713795743,405538842,22.197885513305664,14.862256050109863,22.197885513305664,14.862256050109863,-3.6799590587615967,4.048089981079102,-3.6799590587615967,4.048089981079102
1713795743,426360388,22.100730895996094,14.956220626831055,22.100730895996094,14.956220626831055,-6.746694087982178,7.114702224731445,-6.746694087982178,7.114702224731445
1713795743,445525287,22.01007843017578,15.056196212768555,22.01007843017578,15.056196212768555,-4.048089981079102,4.5387678146362305,-4.048089981079102,4.5387678146362305
1713795743,465501777,21.91832160949707,15.14181900024414,21.91832160949707,15.14181900024414,-4.170759201049805,3.6799590587615967,-4.170759201049805,3.6799590587615967
1713795743,485508770,21.82938575744629,15.235906600952148,21.82938575744629,15.235906600952148,-3.925297975540161,4.048089981079102,-3.925297975540161,4.048089981079102
1713795743,505448743,21.74891471862793,15.32153034210205,21.74891471862793,15.32153034210205,-4.048089981079102,4.170759201049805,-4.048089981079102,4.170759201049805
1713795743,525428729,21.74891471862793,15.32153034210205,21.74891471862793,15.32153034210205,-4.048089981079102,4.170759201049805,-4.048089981079102,4.170759201049805
1713795743,545459742,21.656545639038086,15.420524597167969,21.656545639038086,15.420524597167969,-3.925297975540161,4.048089981079102,-3.925297975540161,4.048089981079102
1713795743,565516639,21.5696964263916,15.507987022399902,21.5696964263916,15.507987022399902,-4.048089981079102,4.170759201049805,-4.048089981079102,4.170759201049805
1713795743,585458736,21.48198699951172,15.600848197937012,21.48198699951172,15.600848197937012,-6.624024391174316,2.7599387168884277,-6.624024391174316,2.7599387168884277
1713795743,605447238,21.39072036743164,15.69763469696045,21.39072036743164,15.69763469696045,-4.048089981079102,4.293428897857666,-4.048089981079102,4.293428897857666
1713795743,625453410,21.302398681640625,15.795892715454102,21.302398681640625,15.795892715454102,-3.802628517150879,4.170759201049805,-3.802628517150879,4.170759201049805
1713795743,645473180,21.213462829589844,15.883846282958984,21.213462829589844,15.883846282958984,-4.048089981079102,4.416098117828369,-4.048089981079102,4.416098117828369
1713795743,665490745,21.13213348388672,15.969592094421387,21.13213348388672,15.969592094421387,-3.802628517150879,4.293428897857666,-3.802628517150879,4.293428897857666
1713795743,685517055,21.042217254638672,16.064292907714844,21.042217254638672,16.064292907714844,-4.170759201049805,3.925297975540161,-4.170759201049805,3.925297975540161
1713795743,705427404,21.042217254638672,16.064292907714844,21.042217254638672,16.064292907714844,-4.170759201049805,3.925297975540161,-4.170759201049805,3.925297975540161
1713795743,725479721,20.948251724243164,16.161447525024414,20.948251724243164,16.161447525024414,-4.048089981079102,3.6799590587615967,-4.048089981079102,3.6799590587615967
1713795743,745457602,20.858335494995117,16.257741928100586,20.858335494995117,16.257741928100586,-3.495954990386963,5.151991844177246,-3.495954990386963,5.151991844177246
1713795743,765454240,20.76314353942871,16.351585388183594,20.76314353942871,16.351585388183594,-3.925297975540161,4.170759201049805,-3.925297975540161,4.170759201049805
1713795743,785474600,20.68365478515625,16.433897018432617,20.68365478515625,16.433897018432617,-3.925297975540161,4.048089981079102,-3.925297975540161,4.048089981079102
1713795743,805476832,20.594228744506836,16.526020050048828,20.594228744506836,16.526020050048828,-4.170759201049805,4.293428897857666,-4.170759201049805,4.293428897857666
1713795743,825459067,20.4973201751709,16.624401092529297,20.4973201751709,16.624401092529297,-4.048089981079102,4.170759201049805,-4.048089981079102,4.170759201049805
1713795743,845497113,20.41292381286621,16.714073181152344,20.41292381286621,16.714073181152344,-3.5572898387908936,3.6799590587615967,-3.5572898387908936,3.6799590587615967
1713795743,865423786,20.41292381286621,16.714073181152344,20.41292381286621,16.714073181152344,-3.5572898387908936,3.6799590587615967,-3.5572898387908936,3.6799590587615967
1713795743,885490057,20.33085823059082,16.797611236572266,20.33085823059082,16.797611236572266,-3.802628517150879,3.925297975540161,-3.802628517150879,3.925297975540161
1713795743,905490857,20.23493003845215,16.897096633911133,20.23493003845215,16.897096633911133,-1.3492406606674194,1.3492406606674194,-1.3492406606674194,1.3492406606674194
1713795743,925476742,20.139616012573242,17.00136375427246,20.139616012573242,17.00136375427246,-4.048089981079102,3.925297975540161,-4.048089981079102,3.925297975540161
1713795743,945451143,20.054851531982422,17.08723258972168,20.054851531982422,17.08723258972168,-4.293428897857666,4.661437034606934,-4.293428897857666,4.661437034606934
1713795743,965472505,19.9713134765625,17.176782608032227,19.9713134765625,17.176782608032227,-3.6799590587615967,4.048089981079102,-3.6799590587615967,4.048089981079102
1713795743,985455115,19.88654899597168,17.26203727722168,19.88654899597168,17.26203727722168,-3.5572898387908936,3.802628517150879,-3.5572898387908936,3.802628517150879
1713795744,5489223,19.79810333251953,17.35367202758789,19.79810333251953,17.35367202758789,-3.6799590587615967,4.170759201049805,-3.6799590587615967,4.170759201049805
1713795744,25421771,19.79810333251953,17.35367202758789,19.79810333251953,17.35367202758789,-3.6799590587615967,4.170759201049805,-3.6799590587615967,4.170759201049805
1713795744,45444440,19.79810333251953,17.35367202758789,19.79810333251953,17.35367202758789,-3.6799590587615967,4.170759201049805,-3.6799590587615967,4.170759201049805
1713795744,65435381,19.79810333251953,17.35367202758789,19.79810333251953,17.35367202758789,-3.6799590587615967,4.170759201049805,-3.6799590587615967,4.170759201049805
1713795744,85508971,19.555219650268555,17.608945846557617,19.555219650268555,17.608945846557617,-3.6799590587615967,3.925297975540161,-3.6799590587615967,3.925297975540161
1713795744,105470555,19.468490600585938,17.70217514038086,19.468490600585938,17.70217514038086,-3.6799590587615967,3.925297975540161,-3.6799590587615967,3.925297975540161
1713795744,125451581,19.387161254882812,17.791601181030273,19.387161254882812,17.791601181030273,-3.925297975540161,4.293428897857666,-3.925297975540161,4.293428897857666
1713795744,145479138,19.30742645263672,17.87342071533203,19.30742645263672,17.87342071533203,-3.925297975540161,4.170759201049805,-3.925297975540161,4.170759201049805
1713795744,165460115,19.222047805786133,17.963214874267578,19.222047805786133,17.963214874267578,-3.5572898387908936,3.6799590587615967,-3.5572898387908936,3.6799590587615967
1713795744,185441270,19.222047805786133,17.963214874267578,19.222047805786133,17.963214874267578,-3.5572898387908936,3.6799590587615967,-3.5572898387908936,3.6799590587615967
1713795744,205489731,19.128206253051758,18.058284759521484,19.128206253051758,18.058284759521484,-3.4346203804016113,3.189281463623047,-3.4346203804016113,3.189281463623047
1713795744,225488417,19.046018600463867,18.14378547668457,19.046018600463867,18.14378547668457,-3.311950922012329,3.5572898387908936,-3.311950922012329,3.5572898387908936
1713795744,245484521,18.973520278930664,18.222293853759766,18.973520278930664,18.222293853759766,-3.4346203804016113,3.311950922012329,-3.4346203804016113,3.311950922012329
1713795744,265464901,18.89513397216797,18.304359436035156,18.89513397216797,18.304359436035156,-3.4346203804016113,3.311950922012329,-3.4346203804016113,3.311950922012329
1713795744,285463753,18.821043014526367,18.384952545166016,18.821043014526367,18.384952545166016,-3.5572898387908936,3.189281463623047,-3.5572898387908936,3.189281463623047
1713795744,305494041,18.74510955810547,18.461130142211914,18.74510955810547,18.461130142211914,-3.802628517150879,3.6799590587615967,-3.802628517150879,3.6799590587615967
1713795744,325477062,18.680953979492188,18.53252410888672,18.680953979492188,18.53252410888672,-2.0853796005249023,2.453387975692749,-2.0853796005249023,2.453387975692749
1713795744,345427289,18.680953979492188,18.53252410888672,18.680953979492188,18.53252410888672,-2.0853796005249023,2.453387975692749,-2.0853796005249023,2.453387975692749
1713795744,365466881,18.641454696655273,18.57570457458496,18.641454696655273,18.57570457458496,-1.3492406606674194,263430.53125,-1.3492406606674194,263430.53125
1713795744,385454745,18.6205997467041,18.598520278930664,18.6205997467041,18.598520278930664,-0.3678855001926422,0.6133469939231873,-0.3678855001926422,0.6133469939231873
1713795744,405464598,18.6205997467041,18.60085105895996,18.6205997467041,18.60085105895996,0.24521611630916595,-0.1225467249751091,0.24521611630916595,-0.1225467249751091
1713795744,425469019,18.628084182739258,18.597415924072266,18.628084182739258,18.597415924072266,0.49055489897727966,-0.24521611630916595,0.49055489897727966,-0.24521611630916595
1713795744,445509582,18.638755798339844,18.590423583984375,18.638755798339844,18.590423583984375,0.49055489897727966,-0.1225467249751091,0.49055489897727966,-0.1225467249751091
1713795744,465482107,18.64820098876953,18.583555221557617,18.64820098876953,18.583555221557617,0.3678855001926422,-0.24521611630916595,0.3678855001926422,-0.24521611630916595
1713795744,485479576,18.651268005371094,18.581714630126953,18.651268005371094,18.581714630126953,0.0,0.0,0.0,0.0
1713795744,505505837,18.651268005371094,18.581714630126953,18.651268005371094,18.581714630126953,0.0,0.0,0.0,0.0
1713795744,525491410,18.651268005371094,18.581836700439453,18.651268005371094,18.581836700439453,0.0,0.0,0.0,0.0
1713795744,545514647,18.651268005371094,18.581836700439453,18.651268005371094,18.581836700439453,0.0,0.0,0.0,0.0
1713795744,565479132,18.651268005371094,18.581836700439453,18.651268005371094,18.581836700439453,0.0,0.0,0.0,0.0
1713795744,585455832,18.651268005371094,18.581836700439453,18.651268005371094,18.581836700439453,0.0,0.0,0.0,0.0
1713795744,605467838,18.651268005371094,18.581836700439453,18.651268005371094,18.581836700439453,0.0,0.0,0.0,0.0
1713795744,625474744,18.651268005371094,18.581836700439453,18.651268005371094,18.581836700439453,0.0,0.0,0.0,0.0
1713795744,645456681,18.651268005371094,18.581836700439453,18.651268005371094,18.581836700439453,0.0,0.0,0.0,0.0
1713795744,665483009,18.651268005371094,18.581714630126953,18.651268005371094,18.581714630126953,0.0,0.0,0.0,0.0
1713795744,685463733,18.651268005371094,18.581714630126953,18.651268005371094,18.581714630126953,0.0,0.0,0.0,0.0
1713795744,705488917,18.651268005371094,18.581714630126953,18.651268005371094,18.581714630126953,0.0,0.0,0.0,0.0
1713795744,725464198,18.651268005371094,18.581714630126953,18.651268005371094,18.581714630126953,0.0,0.0,0.0,0.0
1713795744,745469855,18.651268005371094,18.581714630126953,18.651268005371094,18.581714630126953,0.0,0.0,0.0,0.0
1713795744,765462780,18.651268005371094,18.581714630126953,18.651268005371094,18.581714630126953,0.0,0.0,0.0,0.0
1713795744,785475772,18.651268005371094,18.581714630126953,18.651268005371094,18.581714630126953,0.0,0.0,0.0,0.0
1713795744,805754173,18.651268005371094,18.581714630126953,18.651268005371094,18.581714630126953,0.0,0.0,0.0,0.0
1713795744,825481603,18.654335021972656,18.580856323242188,18.654335021972656,18.580856323242188,0.1225467249751091,-0.24521611630916595,0.1225467249751091,-0.24521611630916595
1713795744,845461518,18.658628463745117,18.576438903808594,18.658628463745117,18.576438903808594,0.24521611630916595,-0.24521611630916595,0.24521611630916595,-0.24521611630916595
1713795744,865508717,18.678991317749023,18.560001373291016,18.678991317749023,18.560001373291016,1.5945794582366943,-1.3492406606674194,1.5945794582366943,-1.3492406606674194
1713795744,885471146,18.678991317749023,18.560001373291016,18.678991317749023,18.560001373291016,1.5945794582366943,-1.3492406606674194,1.5945794582366943,-1.3492406606674194
1713795744,905499554,18.7205753326416,18.521484375,18.7205753326416,18.521484375,1.4719101190567017,-1.717248797416687,1.4719101190567017,-1.717248797416687
1713795744,925475313,18.769765853881836,18.47989845275879,18.769765853881836,18.47989845275879,1.717248797416687,-1.717248797416687,1.717248797416687,-1.717248797416687
1713795744,945453875,18.8203067779541,18.43303871154785,18.8203067779541,18.43303871154785,1.8399182558059692,-1.5332447290420532,1.8399182558059692,-1.5332447290420532
1713795744,965503671,18.872072219848633,18.38581085205078,18.872072219848633,18.38581085205078,2.575934648513794,-2.2080490589141846,2.575934648513794,-2.2080490589141846
1713795744,985458728,18.909976959228516,18.34937858581543,18.909976959228516,18.34937858581543,1.8399182558059692,-1.5945794582366943,1.8399182558059692,-1.5945794582366943
1713795745,5469262,18.941503524780273,18.323863983154297,18.941503524780273,18.323863983154297,1.3492406606674194,-0.9812324643135071,1.3492406606674194,-0.9812324643135071
1713795745,25454989,18.941503524780273,18.323863983154297,18.941503524780273,18.323863983154297,1.3492406606674194,-0.9812324643135071,1.3492406606674194,-0.9812324643135071
1713795745,45445090,18.941503524780273,18.323863983154297,18.941503524780273,18.323863983154297,1.3492406606674194,-0.9812324643135071,1.3492406606674194,-0.9812324643135071
1713795745,65462499,18.954139709472656,18.31601333618164,18.954139709472656,18.31601333618164,-0.24521611630916595,0.3678855001926422,-0.24521611630916595,0.3678855001926422
1713795745,85458501,18.94812774658203,18.325580596923828,18.94812774658203,18.325580596923828,-0.3678855001926422,0.49055489897727966,-0.3678855001926422,0.49055489897727966
1713795745,105446770,18.94812774658203,18.325580596923828,18.94812774658203,18.325580596923828,-0.3678855001926422,0.49055489897727966,-0.3678855001926422,0.49055489897727966
1713795745,125464375,18.939050674438477,18.334413528442383,18.939050674438477,18.334413528442383,-0.24521611630916595,0.3678855001926422,-0.24521611630916595,0.3678855001926422
1713795745,145480899,18.933652877807617,18.340055465698242,18.933652877807617,18.340055465698242,-0.1225467249751091,0.1225467249751091,-0.1225467249751091,0.1225467249751091
1713795745,165489543,18.931568145751953,18.340423583984375,18.931568145751953,18.340423583984375,0.0,0.0,0.0,0.0
1713795745,185487909,18.931568145751953,18.340423583984375,18.931568145751953,18.340423583984375,0.0,0.0,0.0,0.0
1713795745,205481056,18.931568145751953,18.340423583984375,18.931568145751953,18.340423583984375,0.0,0.0,0.0,0.0
1713795745,225509139,18.931690216064453,18.340423583984375,18.931690216064453,18.340423583984375,0.0,0.0,0.0,0.0
1713795745,245481220,18.931690216064453,18.340423583984375,18.931690216064453,18.340423583984375,0.0,0.0,0.0,0.0
1713795745,265485307,18.931690216064453,18.340423583984375,18.931690216064453,18.340423583984375,0.0,0.0,0.0,0.0
1713795745,285486666,18.931690216064453,18.340423583984375,18.931690216064453,18.340423583984375,0.0,0.0,0.0,0.0
1713795745,305500284,18.931690216064453,18.340423583984375,18.931690216064453,18.340423583984375,0.0,0.0,0.0,0.0
1713795745,325471161,18.931690216064453,18.340423583984375,18.931690216064453,18.340423583984375,0.0,0.0,0.0,0.0
1713795745,345485316,18.931690216064453,18.340545654296875,18.931690216064453,18.340545654296875,0.0,0.1225467249751091,0.0,0.1225467249751091
1713795745,365492897,18.934389114379883,18.349010467529297,18.934389114379883,18.349010467529297,0.24521611630916595,0.49055489897727966,0.24521611630916595,0.49055489897727966
1713795745,385476949,18.944692611694336,18.362995147705078,18.944692611694336,18.362995147705078,0.7358936667442322,0.8585630655288696,0.7358936667442322,0.8585630655288696
1713795745,405450303,18.96615982055664,18.384462356567383,18.96615982055664,18.384462356567383,0.9812324643135071,1.3492406606674194,0.9812324643135071,1.3492406606674194
1713795745,425492187,18.987382888793945,18.41083526611328,18.987382888793945,18.41083526611328,1.1040245294570923,1.1040245294570923,1.1040245294570923,1.1040245294570923
1713795745,445460562,19.022220611572266,18.451807022094727,19.022220611572266,18.451807022094727,2.0853796005249023,2.2080490589141846,2.0853796005249023,2.2080490589141846
1713795745,465490391,19.090301513671875,18.52430534362793,19.090301513671875,18.52430534362793,3.311950922012329,3.189281463623047,3.311950922012329,3.189281463623047
1713795745,485405237,19.090301513671875,18.52430534362793,19.090301513671875,18.52430534362793,3.311950922012329,3.189281463623047,3.311950922012329,3.189281463623047
1713795745,505466650,19.169424057006836,18.604286193847656,19.169424057006836,18.604286193847656,4.170759201049805,4.170759201049805,4.170759201049805,4.170759201049805
1713795745,525500596,19.288658142089844,18.726831436157227,19.288658142089844,18.726831436157227,9.322874069213867,3.5572898387908936,9.322874069213867,3.5572898387908936
1713795745,545474050,19.41709327697754,18.85342788696289,19.41709327697754,18.85342788696289,5.274661064147949,5.274661064147949,5.274661064147949,5.274661064147949
1713795745,565519138,19.554973602294922,18.986522674560547,19.554973602294922,18.986522674560547,6.624024391174316,6.37868595123291,6.624024391174316,6.37868595123291
1713795745,585484138,19.703035354614258,19.14108657836914,19.703035354614258,19.14108657836914,6.746694087982178,6.992033004760742,6.746694087982178,6.992033004760742
1713795745,605457592,19.85600471496582,19.289148330688477,19.85600471496582,19.289148330688477,7.237371444702148,7.36004114151001,7.237371444702148,7.36004114151001
1713795745,625440258,19.85600471496582,19.289148330688477,19.85600471496582,19.289148330688477,7.237371444702148,7.36004114151001,7.237371444702148,7.36004114151001
1713795745,645463627,20.02565574645996,19.471067428588867,20.02565574645996,19.471067428588867,7.482710361480713,7.728049278259277,7.482710361480713,7.728049278259277
1713795745,665472020,20.213953018188477,19.66709327697754,20.213953018188477,19.66709327697754,6.869363307952881,10.304106712341309,6.869363307952881,10.304106712341309
1713795745,685457897,20.412187576293945,19.854286193847656,20.412187576293945,19.854286193847656,8.096179962158203,8.096179962158203,8.096179962158203,8.096179962158203
1713795745,705459664,20.604164123535156,20.05607795715332,20.604164123535156,20.05607795715332,8.218849182128906,8.218849182128906,8.218849182128906,8.218849182128906
1713795745,725471130,20.814542770385742,20.262653350830078,20.814542770385742,20.262653350830078,8.096179962158203,8.709527015686035,8.096179962158203,8.709527015686035
1713795745,745462522,20.989959716796875,20.429973602294922,20.989959716796875,20.429973602294922,9.200204849243164,9.200204849243164,9.200204849243164,9.200204849243164
1713795745,765531543,21.18500518798828,20.630538940429688,21.18500518798828,20.630538940429688,9.200204849243164,9.200204849243164,9.200204849243164,9.200204849243164
1713795745,785446540,21.18500518798828,20.630538940429688,21.18500518798828,20.630538940429688,9.200204849243164,9.200204849243164,9.200204849243164,9.200204849243164
1713795745,805477596,21.3948917388916,20.845211029052734,21.3948917388916,20.845211029052734,8.832196235656738,8.464188575744629,8.832196235656738,8.464188575744629
1713795745,825477163,21.61128044128418,21.07263946533203,21.61128044128418,21.07263946533203,11.776139259338379,8.709527015686035,11.776139259338379,8.709527015686035
1713795745,845456426,21.80853271484375,21.283876419067383,21.80853271484375,21.283876419067383,9.077535629272461,9.322874069213867,9.077535629272461,9.322874069213867
1713795745,865491768,22.018911361694336,21.486894607543945,22.018911361694336,21.486894607543945,9.077535629272461,9.200204849243164,9.077535629272461,9.200204849243164
1713795745,885481443,22.230884552001953,21.688316345214844,22.230884552001953,21.688316345214844,9.690881729125977,9.568212509155273,9.690881729125977,9.568212509155273
1713795745,905435091,22.449480056762695,21.905441284179688,22.449480056762695,21.905441284179688,8.832196235656738,9.322874069213867,8.832196235656738,9.322874069213867
1713795745,925433912,22.449480056762695,21.905441284179688,22.449480056762695,21.905441284179688,8.832196235656738,9.322874069213867,8.832196235656738,9.322874069213867
1713795745,945473554,22.651762008666992,22.1219539642334,22.651762008666992,22.1219539642334,9.568212509155273,9.568212509155273,9.568212509155273,9.568212509155273
1713795745,965482485,22.871707916259766,22.343984603881836,22.871707916259766,22.343984603881836,9.813551902770996,16.192359924316406,9.813551902770996,16.192359924316406
1713795745,985456305,23.094966888427734,22.568960189819336,23.094966888427734,22.568960189819336,9.200204849243164,9.9362211227417,9.200204849243164,9.9362211227417
1713795746,5491128,23.310251235961914,22.78755760192871,23.310251235961914,22.78755760192871,10.672114372253418,9.077535629272461,10.672114372253418,9.077535629272461
1713795746,25470380,23.310251235961914,22.78755760192871,23.310251235961914,22.78755760192871,10.672114372253418,9.077535629272461,10.672114372253418,9.077535629272461
1713795746,45474124,23.310251235961914,22.78755760192871,23.310251235961914,22.78755760192871,10.672114372253418,9.077535629272461,10.672114372253418,9.077535629272461
1713795746,65471144,23.90985870361328,23.378210067749023,23.90985870361328,23.378210067749023,8.586857795715332,9.44554328918457,8.586857795715332,9.44554328918457
1713795746,85468766,24.102941513061523,23.567243576049805,24.102941513061523,23.567243576049805,10.426775932312012,10.181437492370605,10.426775932312012,10.181437492370605
1713795746,105461752,24.31515884399414,23.7945499420166,24.31515884399414,23.7945499420166,9.9362211227417,10.426775932312012,9.9362211227417,10.426775932312012
1713795746,125510531,24.53829574584961,24.008363723754883,24.53829574584961,24.008363723754883,9.690881729125977,9.813551902770996,9.690881729125977,9.813551902770996
1713795746,145438080,24.53829574584961,24.008363723754883,24.53829574584961,24.008363723754883,9.690881729125977,9.813551902770996,9.690881729125977,9.813551902770996
1713795746,165464646,24.776519775390625,24.253334045410156,24.776519775390625,24.253334045410156,9.44554328918457,9.568212509155273,9.44554328918457,9.568212509155273
1713795746,185493955,25.017196655273438,24.495237350463867,25.017196655273438,24.495237350463867,10.181437492370605,9.44554328918457,10.181437492370605,9.44554328918457
1713795746,205485479,25.251495361328125,24.73125457763672,25.251495361328125,24.73125457763672,10.549445152282715,10.549445152282715,10.549445152282715,10.549445152282715
1713795746,225523611,25.465797424316406,24.953407287597656,25.465797424316406,24.953407287597656,9.077535629272461,10.181437492370605,9.077535629272461,10.181437492370605
1713795746,245497674,25.690650939941406,25.16771125793457,25.690650939941406,25.16771125793457,9.322874069213867,9.322874069213867,9.322874069213867,9.322874069213867
1713795746,265461366,25.690650939941406,25.16771125793457,25.690650939941406,25.16771125793457,9.322874069213867,9.322874069213867,9.322874069213867,9.322874069213867
1713795746,285477101,25.92310905456543,25.398942947387695,25.92310905456543,25.398942947387695,8.464188575744629,8.586857795715332,8.464188575744629,8.586857795715332
1713795746,305508330,26.126863479614258,25.603923797607422,26.126863479614258,25.603923797607422,10.181437492370605,9.690881729125977,10.181437492370605,9.690881729125977
1713795746,325480273,26.3701171875,25.849998474121094,26.3701171875,25.849998474121094,9.077535629272461,9.690881729125977,9.077535629272461,9.690881729125977
1713795746,345509725,26.58981704711914,26.073379516601562,26.58981704711914,26.073379516601562,9.690881729125977,9.9362211227417,9.690881729125977,9.9362211227417
1713795746,365499421,26.799583435058594,26.284862518310547,26.799583435058594,26.284862518310547,9.322874069213867,9.44554328918457,9.322874069213867,9.44554328918457
1713795746,385469745,27.01314926147461,26.49941062927246,27.01314926147461,26.49941062927246,9.568212509155273,9.813551902770996,9.568212509155273,9.813551902770996
1713795746,405441879,27.224632263183594,26.720582962036133,27.224632263183594,26.720582962036133,9.690881729125977,10.058890342712402,9.690881729125977,10.058890342712402
1713795746,425445475,27.224632263183594,26.720582962036133,27.224632263183594,26.720582962036133,9.690881729125977,10.058890342712402,9.690881729125977,10.058890342712402
1713795746,445477867,27.449729919433594,26.944578170776367,27.449729919433594,26.944578170776367,10.672114372253418,9.322874069213867,10.672114372253418,9.322874069213867
1713795746,465454332,27.69347381591797,27.194087982177734,27.69347381591797,27.194087982177734,8.34151840209961,12.389486312866211,8.34151840209961,12.389486312866211
1713795746,485483819,27.9185733795166,27.412683486938477,27.9185733795166,27.412683486938477,10.058890342712402,9.813551902770996,10.058890342712402,9.813551902770996
1713795746,505458010,28.131404876708984,27.62551498413086,28.131404876708984,27.62551498413086,9.44554328918457,9.690881729125977,9.44554328918457,9.690881729125977
1713795746,525459597,28.345462799072266,27.86153221130371,28.345462799072266,27.86153221130371,9.568212509155273,9.322874069213867,9.568212509155273,9.322874069213867
1713795746,545458211,28.57792091369629,28.087366104125977,28.57792091369629,28.087366104125977,9.44554328918457,10.058890342712402,9.44554328918457,10.058890342712402
1713795746,565487209,28.81442642211914,28.312219619750977,28.81442642211914,28.312219619750977,9.690881729125977,9.568212509155273,9.690881729125977,9.568212509155273
1713795746,585439623,28.81442642211914,28.312219619750977,28.81442642211914,28.312219619750977,9.690881729125977,9.568212509155273,9.690881729125977,9.568212509155273
1713795746,605454000,29.042469024658203,28.54320526123047,29.042469024658203,28.54320526123047,9.9362211227417,9.9362211227417,9.9362211227417,9.9362211227417
1713795746,625482724,29.275663375854492,28.787071228027344,29.275663375854492,28.787071228027344,9.200204849243164,10.181437492370605,9.200204849243164,10.181437492370605
1713795746,645481212,29.4947509765625,29.01266098022461,29.4947509765625,29.01266098022461,8.954865455627441,10.426775932312012,8.954865455627441,10.426775932312012
1713795746,665456346,29.722917556762695,29.23101234436035,29.722917556762695,29.23101234436035,10.058890342712402,10.426775932312012,10.058890342712402,10.426775932312012
1713795746,685458283,29.95537567138672,29.475614547729492,29.95537567138672,29.475614547729492,10.304106712341309,9.568212509155273,10.304106712341309,9.568212509155273
1713795746,705459305,30.174585342407227,29.684276580810547,30.174585342407227,29.684276580810547,10.304106712341309,10.058890342712402,10.304106712341309,10.058890342712402
1713795746,725440351,30.174585342407227,29.684276580810547,30.174585342407227,29.684276580810547,10.304106712341309,10.058890342712402,10.304106712341309,10.058890342712402
1713795746,745476738,30.413423538208008,29.919801712036133,30.413423538208008,29.919801712036133,10.058890342712402,9.322874069213867,10.058890342712402,9.322874069213867
1713795746,765500783,30.657289505004883,30.161460876464844,30.657289505004883,30.161460876464844,8.954865455627441,9.077535629272461,8.954865455627441,9.077535629272461
1713795746,785465657,30.853437423706055,30.39158821105957,30.853437423706055,30.39158821105957,9.322874069213867,10.794783592224121,9.322874069213867,10.794783592224121
1713795746,805465139,31.09166145324707,30.600984573364258,31.09166145324707,30.600984573364258,10.304106712341309,9.813551902770996,10.304106712341309,9.813551902770996
1713795746,825475529,31.3192138671875,30.826940536499023,31.3192138671875,30.826940536499023,10.181437492370605,10.181437492370605,10.181437492370605,10.181437492370605
1713795746,845458269,31.5440673828125,31.063201904296875,31.5440673828125,31.063201904296875,10.181437492370605,10.181437492370605,10.181437492370605,10.181437492370605
1713795746,865423035,31.5440673828125,31.063201904296875,31.5440673828125,31.063201904296875,10.181437492370605,10.181437492370605,10.181437492370605,10.181437492370605
1713795746,885439126,31.771495819091797,31.283761978149414,31.771495819091797,31.283761978149414,10.794783592224121,10.91745376586914,10.794783592224121,10.91745376586914
1713795746,905472834,32.002235412597656,31.513153076171875,32.002235412597656,31.513153076171875,10.058890342712402,10.549445152282715,10.058890342712402,10.549445152282715
1713795746,925477564,32.22598648071289,31.756898880004883,32.22598648071289,31.756898880004883,9.813551902770996,10.91745376586914,9.813551902770996,10.91745376586914
1713795746,945506119,32.44286346435547,31.98432731628418,32.44286346435547,31.98432731628418,10.549445152282715,9.690881729125977,10.549445152282715,9.690881729125977
1713795746,965467662,32.682315826416016,32.201942443847656,32.682315826416016,32.201942443847656,10.672114372253418,10.794783592224121,10.672114372253418,10.794783592224121
1713795746,985477596,32.90864181518555,32.42753219604492,32.90864181518555,32.42753219604492,10.549445152282715,9.9362211227417,10.549445152282715,9.9362211227417
1713795747,5486855,33.125152587890625,32.643550872802734,33.125152587890625,32.643550872802734,9.690881729125977,9.813551902770996,9.690881729125977,9.813551902770996
1713795747,25461326,33.125152587890625,32.643550872802734,33.125152587890625,32.643550872802734,9.690881729125977,9.813551902770996,9.690881729125977,9.813551902770996
1713795747,45425715,33.125152587890625,32.643550872802734,33.125152587890625,32.643550872802734,9.690881729125977,9.813551902770996,9.690881729125977,9.813551902770996
1713795747,65433054,33.125152587890625,32.643550872802734,33.125152587890625,32.643550872802734,9.690881729125977,9.813551902770996,9.690881729125977,9.813551902770996
1713795747,85458011,33.81713104248047,33.351478576660156,33.81713104248047,33.351478576660156,9.690881729125977,10.181437492370605,9.690881729125977,10.181437492370605
1713795747,105443690,34.03437805175781,33.56173324584961,34.03437805175781,33.56173324584961,10.181437492370605,10.181437492370605,10.181437492370605,10.181437492370605
1713795747,125479693,34.26352310180664,33.798851013183594,34.26352310180664,33.798851013183594,10.794783592224121,8.709527015686035,10.794783592224121,8.709527015686035
1713795747,145511596,34.500152587890625,34.025299072265625,34.500152587890625,34.025299072265625,9.9362211227417,10.549445152282715,9.9362211227417,10.549445152282715
1713795747,165438699,34.725250244140625,34.25751495361328,34.725250244140625,34.25751495361328,9.322874069213867,9.813551902770996,9.322874069213867,9.813551902770996
1713795747,185440470,34.725250244140625,34.25751495361328,34.725250244140625,34.25751495361328,9.322874069213867,9.813551902770996,9.322874069213867,9.813551902770996
1713795747,205493813,34.951576232910156,34.48469924926758,34.951576232910156,34.48469924926758,9.9362211227417,10.181437492370605,9.9362211227417,10.181437492370605
1713795747,225503644,35.18820571899414,34.72574234008789,35.18820571899414,34.72574234008789,9.44554328918457,10.426775932312012,9.44554328918457,10.426775932312012
1713795747,245488354,35.41318130493164,34.98666000366211,35.41318130493164,34.98666000366211,9.44554328918457,12.144146919250488,9.44554328918457,12.144146919250488
1713795747,265487871,35.59890365600586,35.2414436340332,35.59890365600586,35.2414436340332,7.8507184982299805,10.549445152282715,7.8507184982299805,10.549445152282715
1713795747,285538917,35.78769302368164,35.47966766357422,35.78769302368164,35.47966766357422,9.690881729125977,11.162792205810547,9.690881729125977,11.162792205810547
1713795747,305451719,35.78769302368164,35.47966766357422,35.78769302368164,35.47966766357422,9.690881729125977,11.162792205810547,9.690881729125977,11.162792205810547
1713795747,325460849,36.02677536010742,35.775054931640625,36.02677536010742,35.775054931640625,8.832196235656738,10.549445152282715,8.832196235656738,10.549445152282715
1713795747,345503134,36.217891693115234,36.024810791015625,36.217891693115234,36.024810791015625,9.322874069213867,11.530800819396973,9.322874069213867,11.530800819396973
1713795747,365446709,36.43906784057617,36.29750442504883,36.43906784057617,36.29750442504883,8.709527015686035,10.181437492370605,8.709527015686035,10.181437492370605
1713795747,385459845,36.654964447021484,36.57252883911133,36.654964447021484,36.57252883911133,8.832196235656738,11.040122985839844,8.832196235656738,11.040122985839844
1713795747,405456633,36.868778228759766,36.80940628051758,36.868778228759766,36.80940628051758,8.954865455627441,10.058890342712402,8.954865455627441,10.058890342712402
1713795747,425509962,37.074737548828125,37.04701614379883,37.074737548828125,37.04701614379883,8.832196235656738,10.181437492370605,8.832196235656738,10.181437492370605
1713795747,445435566,37.074737548828125,37.04701614379883,37.074737548828125,37.04701614379883,8.832196235656738,10.181437492370605,8.832196235656738,10.181437492370605
1713795747,465473673,37.288429260253906,37.28315353393555,37.288429260253906,37.28315353393555,9.44554328918457,8.954865455627441,9.44554328918457,8.954865455627441
1713795747,485459385,37.54296875,37.52689743041992,37.54296875,37.52689743041992,10.058890342712402,9.322874069213867,10.058890342712402,9.322874069213867
1713795747,505461388,37.76279067993164,37.750892639160156,37.76279067993164,37.750892639160156,9.690881729125977,9.690881729125977,9.690881729125977,9.690881729125977
1713795747,525491012,37.98089599609375,37.954647064208984,37.98089599609375,37.954647064208984,10.058890342712402,10.058890342712402,10.058890342712402,10.058890342712402
1713795747,545478154,38.19470977783203,38.17655563354492,38.19470977783203,38.17655563354492,9.9362211227417,9.9362211227417,9.9362211227417,9.9362211227417
1713795747,565467497,38.42692184448242,38.40840148925781,38.42692184448242,38.40840148925781,9.568212509155273,10.304106712341309,9.568212509155273,10.304106712341309
1713795747,585432735,38.42692184448242,38.40840148925781,38.42692184448242,38.40840148925781,9.568212509155273,10.304106712341309,9.568212509155273,10.304106712341309
1713795747,605468606,38.67140197753906,38.6452751159668,38.67140197753906,38.6452751159668,10.304106712341309,10.181437492370605,10.304106712341309,10.181437492370605
1713795747,625479197,38.88766860961914,38.87687683105469,38.88766860961914,38.87687683105469,9.813551902770996,8.52552318572998,9.813551902770996,8.52552318572998
1713795747,645472364,39.13251876831055,39.111663818359375,39.13251876831055,39.111663818359375,10.058890342712402,9.077535629272461,10.058890342712402,9.077535629272461
1713795747,665460079,39.33565902709961,39.31222915649414,39.33565902709961,39.31222915649414,9.44554328918457,9.813551902770996,9.44554328918457,9.813551902770996
1713795747,685455577,39.55842590332031,39.523712158203125,39.55842590332031,39.523712158203125,9.568212509155273,10.058890342712402,9.568212509155273,10.058890342712402
1713795747,705468184,39.79137420654297,39.75543212890625,39.79137420654297,39.75543212890625,9.690881729125977,9.44554328918457,9.690881729125977,9.44554328918457
1713795747,725492066,40.01218032836914,39.973907470703125,40.01218032836914,39.973907470703125,9.322874069213867,9.813551902770996,9.322874069213867,9.813551902770996
1713795747,745438581,40.01218032836914,39.973907470703125,40.01218032836914,39.973907470703125,9.322874069213867,9.813551902770996,9.322874069213867,9.813551902770996
1713795747,765487300,40.236663818359375,40.200355529785156,40.236663818359375,40.200355529785156,9.44554328918457,9.44554328918457,9.44554328918457,9.44554328918457
1713795747,785458854,40.45746994018555,40.42827606201172,40.45746994018555,40.42827606201172,9.44554328918457,9.568212509155273,9.44554328918457,9.568212509155273
1713795747,805498956,40.672386169433594,40.64638137817383,40.672386169433594,40.64638137817383,9.44554328918457,9.322874069213867,9.44554328918457,9.322874069213867
1713795747,825475296,40.879573822021484,40.85381317138672,40.879573822021484,40.85381317138672,9.200204849243164,9.690881729125977,9.200204849243164,9.690881729125977
1713795747,845488630,41.09547424316406,41.0695915222168,41.09547424316406,41.0695915222168,9.568212509155273,9.690881729125977,9.568212509155273,9.690881729125977
1713795747,865481249,41.31909942626953,41.29518127441406,41.31909942626953,41.29518127441406,9.690881729125977,10.181437492370605,9.690881729125977,10.181437492370605
1713795747,885443372,41.31909942626953,41.29518127441406,41.31909942626953,41.29518127441406,9.690881729125977,10.181437492370605,9.690881729125977,10.181437492370605
1713795747,905482617,41.52592086791992,41.511322021484375,41.52592086791992,41.511322021484375,9.322874069213867,9.568212509155273,9.322874069213867,9.568212509155273
1713795747,925480654,41.74942398071289,41.72562789916992,41.74942398071289,41.72562789916992,16.31502914428711,16.560367584228516,16.31502914428711,16.560367584228516
1713795747,945485998,41.97820281982422,41.95195007324219,41.97820281982422,41.95195007324219,9.077535629272461,8.832196235656738,9.077535629272461,8.832196235656738
1713795747,965489027,42.1947135925293,42.168216705322266,42.1947135925293,42.168216705322266,9.200204849243164,9.44554328918457,9.200204849243164,9.44554328918457
1713795747,985463458,42.39344024658203,42.36166763305664,42.39344024658203,42.36166763305664,9.9362211227417,9.077535629272461,9.9362211227417,9.077535629272461
1713795748,5491509,42.60332489013672,42.57584762573242,42.60332489013672,42.57584762573242,9.44554328918457,9.322874069213867,9.44554328918457,9.322874069213867
1713795748,25459614,42.60332489013672,42.57584762573242,42.60332489013672,42.57584762573242,9.44554328918457,9.322874069213867,9.44554328918457,9.322874069213867
1713795748,45450504,42.60332489013672,42.57584762573242,42.60332489013672,42.57584762573242,9.44554328918457,9.322874069213867,9.44554328918457,9.322874069213867
1713795748,65421603,42.60332489013672,42.57584762573242,42.60332489013672,42.57584762573242,9.44554328918457,9.322874069213867,9.44554328918457,9.322874069213867
1713795748,85491894,43.25678634643555,43.234458923339844,43.25678634643555,43.234458923339844,263430.53125,9.813551902770996,263430.53125,9.813551902770996
1713795748,105481005,43.4696159362793,43.44373321533203,43.4696159362793,43.44373321533203,8.832196235656738,9.322874069213867,8.832196235656738,9.322874069213867
1713795748,125475295,43.68195724487305,43.65104675292969,43.68195724487305,43.65104675292969,9.9362211227417,10.426775932312012,9.9362211227417,10.426775932312012
1713795748,145479018,43.90681076049805,43.875038146972656,43.90681076049805,43.875038146972656,9.568212509155273,9.44554328918457,9.568212509155273,9.44554328918457
1713795748,165517981,44.11387634277344,44.09032440185547,44.11387634277344,44.09032440185547,10.058890342712402,8.832196235656738,10.058890342712402,8.832196235656738
1713795748,185441949,44.11387634277344,44.09032440185547,44.11387634277344,44.09032440185547,10.058890342712402,8.832196235656738,10.058890342712402,8.832196235656738
1713795748,205487588,44.33664321899414,44.30082321166992,44.33664321899414,44.30082321166992,8.954865455627441,9.077535629272461,8.954865455627441,9.077535629272461
1713795748,225486413,44.54150390625,44.509239196777344,44.54150390625,44.509239196777344,8.709527015686035,8.954865455627441,8.709527015686035,8.954865455627441
1713795748,245497517,44.755435943603516,44.728572845458984,44.755435943603516,44.728572845458984,9.322874069213867,10.181437492370605,9.322874069213867,10.181437492370605
1713795748,265459180,44.978572845458984,44.95624923706055,44.978572845458984,44.95624923706055,9.813551902770996,9.9362211227417,9.813551902770996,9.9362211227417
1713795748,285451400,45.1938591003418,45.17361831665039,45.1938591003418,45.17361831665039,9.690881729125977,9.322874069213867,9.690881729125977,9.322874069213867
1713795748,305454167,45.410125732421875,45.40276336669922,45.410125732421875,45.40276336669922,9.568212509155273,10.549445152282715,9.568212509155273,10.549445152282715
1713795748,325460133,45.63816833496094,45.62086868286133,45.63816833496094,45.62086868286133,10.058890342712402,8.832196235656738,10.058890342712402,8.832196235656738
1713795748,345439407,45.63816833496094,45.62086868286133,45.63816833496094,45.62086868286133,10.058890342712402,8.832196235656738,10.058890342712402,8.832196235656738
1713795748,365473070,45.84449768066406,45.83762741088867,45.84449768066406,45.83762741088867,8.954865455627441,9.568212509155273,8.954865455627441,9.568212509155273
1713795748,385488510,46.065792083740234,46.06296920776367,46.065792083740234,46.06296920776367,8.954865455627441,9.690881729125977,8.954865455627441,9.690881729125977
1713795748,405481686,46.2641487121582,46.25825881958008,46.2641487121582,46.25825881958008,9.322874069213867,10.058890342712402,9.322874069213867,10.058890342712402
1713795748,425491637,46.46324157714844,46.48065948486328,46.46324157714844,46.48065948486328,9.077535629272461,10.794783592224121,9.077535629272461,10.794783592224121
1713795748,445487939,46.67055130004883,46.71115493774414,46.67055130004883,46.71115493774414,8.464188575744629,10.549445152282715,8.464188575744629,10.549445152282715
1713795748,465484162,46.879581451416016,46.949012756347656,46.879581451416016,46.949012756347656,8.832196235656738,10.549445152282715,8.832196235656738,10.549445152282715
1713795748,485443162,46.879581451416016,46.949012756347656,46.879581451416016,46.949012756347656,8.832196235656738,10.549445152282715,8.832196235656738,10.549445152282715
1713795748,505445414,47.08713912963867,47.18281936645508,47.08713912963867,47.18281936645508,9.200204849243164,10.426775932312012,9.200204849243164,10.426775932312012
1713795748,525497013,47.302913665771484,47.4161376953125,47.302913665771484,47.4161376953125,7.8507184982299805,12.634824752807617,7.8507184982299805,12.634824752807617
1713795748,545466022,47.511329650878906,47.65239715576172,47.511329650878906,47.65239715576172,8.832196235656738,9.813551902770996,8.832196235656738,9.813551902770996
1713795748,565460637,47.71275329589844,47.891727447509766,47.71275329589844,47.891727447509766,9.200204849243164,9.568212509155273,9.200204849243164,9.568212509155273
1713795748,585454398,47.929752349853516,48.11780548095703,47.929752349853516,48.11780548095703,9.200204849243164,9.690881729125977,9.200204849243164,9.690881729125977
1713795748,605481956,48.13792419433594,48.32511901855469,48.13792419433594,48.32511901855469,9.813551902770996,10.058890342712402,9.813551902770996,10.058890342712402
1713795748,625493080,48.345848083496094,48.5413818359375,48.345848083496094,48.5413818359375,9.690881729125977,9.44554328918457,9.690881729125977,9.44554328918457
1713795748,645422037,48.345848083496094,48.5413818359375,48.345848083496094,48.5413818359375,9.690881729125977,9.44554328918457,9.690881729125977,9.44554328918457
1713795748,665467409,48.54837417602539,48.75151443481445,48.54837417602539,48.75151443481445,8.709527015686035,9.568212509155273,8.709527015686035,9.568212509155273
1713795748,685454189,48.77175521850586,48.974159240722656,48.77175521850586,48.974159240722656,5.949342727661133,5.949342727661133,5.949342727661133,5.949342727661133
1713795748,705489625,48.99525833129883,49.19987106323242,48.99525833129883,49.19987106323242,9.813551902770996,9.9362211227417,9.813551902770996,9.9362211227417
1713795748,725466686,49.195335388183594,49.39761734008789,49.195335388183594,49.39761734008789,8.096179962158203,8.709527015686035,8.096179962158203,8.709527015686035
1713795748,745462054,49.39626693725586,49.60652160644531,49.39626693725586,49.60652160644531,9.690881729125977,9.322874069213867,9.690881729125977,9.322874069213867
1713795748,765493076,49.61020278930664,49.8132209777832,49.61020278930664,49.8132209777832,9.9362211227417,9.322874069213867,9.9362211227417,9.322874069213867
1713795748,785496173,49.61020278930664,49.8132209777832,49.61020278930664,49.8132209777832,9.9362211227417,9.322874069213867,9.9362211227417,9.322874069213867
1713795748,805482103,49.84511184692383,50.04948043823242,49.84511184692383,50.04948043823242,9.322874069213867,9.813551902770996,9.322874069213867,9.813551902770996
